!!!!SEGMENT: 054-1-BH.krn
!!!COM: Chopin, Fryderyk
!!!OTL: Scherzo
!!!OPS: Op. 54
!!!PPR: Breitkopf & Härtel
!!!PPP: Leipzig
!!!AGN: Scherzo
!!!NIFC-rismID: 1001041129
!!!NIFC-shelfmark: PL-Wbfc 688/n
!!!OMD: Presto.
**kern	**kern	**dynam
*I"PIANO.	*	*
*part1	*part1	*part1
*staff2	*staff1	*
*clefF4	*clefG2	*
*kcancel	*kcancel	*
*k[f#c#g#d#]	*k[f#c#g#d#]	*
*E:	*E:	*
*M3/4	*M3/4	*
*	*	*
=1	=1	=1
!	!	!LO:DY:rj
(<2.BB	(>2.B<	p
=2	=2	=2
2.C#	2.c#<	.
=3	=3	=3
2.GG#	2.G#<	.
=4	=4	=4
2.C#	2.c#<	.
=5	=5	=5
!LO:TX:a:i:t=ten	!	!
[<\2.BB [<\2.DD#	[2.B< [>2.A< [>2.F#<	>
=6	=6	=6
2.BB_< 2.DD#_<	2.B<_ 2.A<_> 2.F#<_>	]
=7	=7	=7
2.BB_< 2.DD#_<	2.B<_ 2.A<_> 2.F#<_>	.
=8	=8	=8
2.BB] 2.DD#])	2.B<_ 2.A<] 2.F#<])	.
=9	=9	=9
.	.	.
!	!	!LO:DY:b=2
*ped	*	*
!	!	!LO:DY:rj
4BBB	2.B<]	fz
4rAA	.	.
4rAA	.	.
!!LO:LB:g=original
=10	=10	=10
2.B 2.F# 2.BB	(<2.a 2.d#	>
*Xped	*	*
.	.	.
=11	=11	=11
4B 4E	4g# 4e)	.
8r	8r	.
8A 8E	(>8f# 8B	.
4G# 4E	4e 4B	.
=12	=12	=12
2.B 2.E	2.g# 2.e	]
=13	=13	=13
!	!LO:TX:a:i:t=ten.	!
!	!LO:TX:a:t=P:diminuendolike accent:problem	!
[>2.F# [<2.C#	[>2.f# [<2.e [<2.A#X^<	.
=14	=14	=14
2.F#_> 2.C#_<	2.f#_> 2.e_< 2.A#X_<	.
=15	=15	=15
2.F#_> 2.C#_<	2.f#_> 2.e_< 2.A#X_<	.
=16	=16	=16
2.F#] 2.C#]	2.f#] 2.e] 2.A#X]	.
=17	=17	=17
*ped	*	*
2BB\	2B</ 2G#<)	.
4G#	(>4e'> 4B'>	<
=18	=18	=18
4B	4g#'> 4e'>	.
4e>	4b'> 4g#'>	.
4g#>	4ee'> 4b'>	.
=19	=19	=19
2.b>	2.gg# 2.ee	.
*Xped	*	*
.	.	.
=20	=20	=20
2.ee> 2.a#X>	2.ccc# 2.ff##	[[
!!LO:LB:g=original
=21	=21	=21
4dd#> 4b>	4bb'> 4ff#X'>	>
4b> 4e#X>	4gg#'> 4ddn'>	.
4a> 4f#>	4aa'> 4cc#'>	.
=22	=22	=22
4a> 4d#X>	4ff#'> 4cc#'>	.
4g#> 4G#>	4gg#'> 4b#X'>	.
4g#> 4c#>	4ee'> 4cc#'>	.
=23	=23	=23
2.e> 2.c#>	2.cc# 2.g#	.
=24	=24	=24
2.f#> 2.B>	2.dd# 2.b	]]
=25	=25	=25
4B 4E	4ee 4g#)	.
4r	4r	.
4r	4r	.
*ped	*	*
=26	=26	=26
[<2.BB\	[>2.B</	>
=27	=27	=27
(<2.BB\]	(>2.B</]	]
.	.	.
=28	=28	=28
4EE	4G#<	<
4.BB/	4.e	.
8B	8b/	.
=29	=29	=29
[>2.B	[>2.b	[
*Xped	*	*
=30	=30	=30
*^	*^	*
2.B_>	2A	2.b_>	2a	.
.	4G#	.	4g#	.
=31	=31	=31	=31	=31
2.B_>	2.G#	2.b_>	2.g#	>
=32	=32	=32	=32	=32
2.B]	2F#)	2.b])	2f#	.
.	4G#	.	4g#	.
*	*	*v	*v	*
!!LO:LB:g=original
=33	=33	=33	=33
2.BB	[<2.EE	(>2.b/ [<2.e 2.B	]]
=34	=34	=34	=34
2.C#	2.EE_<	2.cc# 2.e_< 2.c#/	.
=35	=35	=35	=35
2.GG#	2.EE_<	2.g#/ 2.e_< 2.G#	.
=36	=36	=36	=36
2.C#	2.EE]	2.cc#/ 2.e] 2.c#	.
*v	*v	*	*
*ped	*	*
=37	=37	=37
!	!LO:TX:a:i:t=ten.	!
[>2.F#/ [<2.BB/ [<2.DD#/	[>2.b [>2.a [<2.f# [<2.B	>]
=38	=38	=38
2.F#/_> 2.BB/_< 2.DD#/_<	2.b_> 2.a_> 2.f#_< 2.B_<	.
=39	=39	=39
2.F#/_> 2.BB/_< 2.DD#/_<	2.b_> 2.a_> 2.f#_< 2.B_<	.
=40	=40	=40
2.F#/] 2.BB/_> 2.DD#/]	2.b] 2.a] 2.f#] 2.B_<)	.
=41	=41	=41
*^	*	*
!	!	!	!LO:DY:b=2
!	!	!	!LO:DY:rj
2.BB]	4BBB	(>2.B]	fz
.	4rAA	.	.
.	4rAA	.	.
*v	*v	*	*
=42	=42	=42
2.B 2.F# 2.BB	2.a 2.d#	>
*Xped	*	*
.	.	.
=43	=43	=43
4B 4E	4g# 4e)	.
8rG	8r	.
8A 8E	(>8f# 8B	.
4G# 4E	4e 4B	]
=44	=44	=44
2.B 2.E	2.g#) 2.e	.
=45	=45	=45
!	!LO:TX:a:i:t=ten.	!
*ped	*	*
[<2.E [<2.Dn	[>2.e [>2.B< [>2.G#<	>]
!!LO:LB:g=original
=46	=46	=46
2.E_< 2.DnX_<	2.e_> 2.B<_> 2.G#<_>	.
=47	=47	=47
2.E_< 2.DnX_<	2.e_> 2.B<_> 2.G#<_>	.
=48	=48	=48
!LO:S:s=1:note:problem:note-level slur	!	!
N(<2.E] 2.DnX]	2.e_> 2.B<_> 2.G#<_>	.
=49	=49	=49
!	!	!LO:DY:b=2
!	!LO:S:s=3:note:problem:note-level slur	!
4DDn\	2e] 2B<] 2G#<]N)	fz<
4r	.	.
4G#\	(>4e'> 4B'>	.
=50	=50	=50
4B>	4g#'> 4e'>	.
4e>	4b'> 4g#'>	.
4g#>	4ee'> 4b'>	.
=51	=51	=51
2.b>	2.gg# 2.ee	.
*Xped	*	*
.	.	.
=52	=52	=52
2.ddn> 2.a>	2.ccc# 2.ff#	.
=53	=53	=53
4ddn> 4g#>	4bb'> 4ff#'>	[
4dd> 4b>	4gg#'> 4ee'>	>
4cc#> 4a>	4aa'> 4ee'>	.
=54	=54	=54
4a> 4dn>	4ff#'> 4ddn'>	.
4g#> 4e>	4ee'> 4b'>	.
4e> 4A>	4cc#'> 4a'>)	.
=55	=55	=55
2.dn 2.A 2.Dn	(>2.a 2.f#	.
=56	=56	=56
2.dn 2.G# [<2.E	2.b (<2.e	]
=57	=57	=57
4A'> 4E'>] 4AA'>	4cc#'> 4a 4e 4c#))	.
4r	4r	.
4r	4r	.
!!LO:PB:g=original
=58	=58	=58
*ped	*	*
[>2.E	[<2.e^<	.
=59	=59	=59
(<2.E]	(>2.e]	.
=60	=60	=60
4AA/	4c#	.
4.E	4.a	.
8e	8ee\	.
=61	=61	=61
2.e	2.ee\	.
*Xped	*	*
=62	=62	=62
2d#	2dd#	.
4c#	4cc#	.
=63	=63	=63
2.c#	2.cc#	.
=64	=64	=64
2.c#	2.cc#	.
=65	=65	=65
.	(<8qcc#/	fz
*ped	*	*
4e 4A)	4f#))	.
4r	4r	.
4r	4r	.
*Xped	*	*
.	.	.
=66	=66	=66
!	!LO:TX:i:t=leggiero.	!
2.rF	(>8b#XL	<
.	8cc#	.
.	8dd#	.
.	8cc#	.
.	8gg#	.
.	8ff#J	.
*clefG2	*	*
!!LO:LB:g=original
=67	=67	=67
4f#^> 4e^> 4A^>	8gg#L	.
.	8ff#	.
4rb	8ee#X	.
.	8ff#	.
4rb	8ddd#	.
.	8ccc#J	.
=68	=68	=68
*	*8va	*
4g#^> 4e^> 4B^>	8aa#XL	.
.	8bb	.
4rb	8ddd#	.
.	8eeeJ	[
4rb	4eeee	.
=69	=69	=69
*^	*	*
*	*	*	*^
!	!	!	!	!LO:HP:b=2
(>4b	2.e 2.c#	8dddd#L	>	<
.	.	8bbb#X	.	.
4a	.	8dddd#	.	.
.	.	8cccc#	.	.
4cc#	.	8aaa	.	.
.	.	8eeeJ	.	[[
*	*	*X8va	*	*
*v	*v	*	*	*
*	*	*v	*v
=70	=70	=70
!	!LO:TX:a:i:t=loco.	!
4ee/)	8ddd#L	.
.	8ccc#	.
4r	8aa	[
.	8ee	.
4r	8dd#	.
.	8cc#J	.
*clefF4	*	*
=71	=71	=71
2.rG	8aL	.
.	8e	.
.	8d#	.
.	8c#	.
.	8A<	.
.	8E<J)	]
=72	=72	=72
*ped	*	*
4AAA'<	2.rdd	.
4r	.	.
4r	.	.
!!LO:LB:g=original
=73	=73	=73
(<8qqAA/L	(>(<8qqc#/L	>
8qqE/J	8qqa/J	.
(<2.e)	2.ee)	.
*Xped	*	*
=74	=74	=74
2d#	2dd#	.
4c#	4cc#	]
=75	=75	=75
2.g#	2.gg#	>
=76	=76	=76
4f#	4ff#	.
4e	4ee	.
4B#X	4b#X	.
=77	=77	=77
2.e	2.ee	.
=78	=78	=78
2d#	2dd#	.
4c#	4cc#	.
=79	=79	=79
2.c#	2.cc#	.
=80	=80	=80
2.c#)	2.cc#)	]]
=81	=81	=81
.	(<8qcc#/	fz
*ped	*	*
4e'> 4A#X'>	4f#)	.
4r	4r	.
4r	4r	.
*Xped	*	*
.	.	.
!!LO:LB:g=original
=82	=82	=82
2.rF	(>8b#XL	<
.	8cc#	.
.	8dd#	.
.	8cc#	.
.	8gg#	.
.	8ff#J	.
*clefG2	*	*
=83	=83	=83
4f#^> 4e^> 4A#X^>	8gg#L	.
.	8ff#	.
4r	8ee#X	.
.	8ff#	.
4r	8ddd#	.
.	8ccc#J	.
=84	=84	=84
*	*8va	*
4g#^> 4e^> 4B^>	8aa#XL	.
.	8bb	.
4r	8ddd#	.
.	8eeeJ	.
4r	4eeee)	[
=85	=85	=85
*^	*	*
*	*	*	*^
!	!	!	!	!LO:HP:b=2
(>4b	2.e 2.c#	(>8dddd#L	>	<
.	.	8bbb#X	.	.
4a#X	.	8dddd#	.	.
.	.	8cccc#	.	.
4cc#	.	8aaa#X	.	.
.	.	8eeeJ	.	.
*	*	*X8va	*	*
*v	*v	*	*	*
=86	=86	=86	=86
!	!LO:TX:a:i:t=loco.	!	!
4ee\)	8ddd#L	.	[
.	8ccc#	.	.
4r	8aa#X	.	.
.	8ee	.	.
4r	8dd#	.	.
.	8cc#J	.	.
*clefF4	*	*	*
*	*	*v	*v
=87	=87	=87
2.rG	8a#XL	.
.	8e	.
.	8d#	.
.	8c#	.
.	8A#X<	.
.	8E<J)	]
!!LO:LB:g=original
=88	=88	=88
*	*ped	*
4FFF#'<	2.rdd	.
4r	.	.
4r	.	.
=89	=89	=89
.	8qA#X/	.
.	(>(<8qqA#/L	.
.	8qqe/	.
.	[<8qqa#X/J)	.
2FF#	2.ee\ 2.a#\_<	>
4C#	.	.
*	*Xped	*
=90	=90	=90
*	*^	*
[<2.F#	2dd#)	2.a#X]	.
.	(>4cc#	.	]
=91	=91	=91	=91
.	[<8qa#X/	.	>
*^	*	*	*
2.e<>/	2.F#_<	\2.gg#:	[<2.a#y\]:	.
=92	=92	=92	=92	=92
2d#<>	2.F#]	2ff#	2.a#X\]	.
4c#<>	.	4ee	.	.
=93	=93	=93	=93	=93
2.g#<>:	2.F#_<:	2.ee	[<2.a#X/	.
=94	=94	=94	=94	=94
2f#<>	2.F#_<	2dd#	2.a#X\]	.
4e<>	.	4cc#	.	.
=95	=95	=95	=95	=95
2.e<>	2.F#\]	2.cc#	2.a#X	]
*v	*v	*	*	*
*	*v	*v	*
=96	=96	=96
2.A#X 2.E	(>2.cc# 2.f#)	<
=97	=97	=97
4B'> 4D#'>	4ff#'> 4b'> 4f#'>)	.
4r	4r	[
4r	4r	.
!!LO:PB:g=original
=98	=98	=98
(>2.f#\	(>8ee#XL	.
.	8ff#	.
.	8gg#	.
.	8ff#	.
.	8ee#	.
.	8ff#J	.
=99	=99	=99
*^	*	*
2.A#X	2.F# 2.E	8ff##XL	.
.	.	8gg#	.
.	.	8aa#X	.
.	.	8gg#	.
.	.	8ff##	.
.	.	8gg#J	.
=100	=100	=100	=100
2d#	2.F# 2.E	8gg##XL	.
.	.	8aa#X	.
.	.	8bb	.
.	.	8aa#	.
4c#	.	8gg##	.
.	.	8aa#J	.
=101	=101	=101	=101
*	*	*8va	*
2.B	4F# 4D#	8bbL	.
.	.	8ggg#	.
.	4rD	8fff#	.
.	.	8eee#X	.
.	4rD	8eeen	.
.	.	8ddd#J	.
*	*	*X8va	*
*v	*v	*	*
=102	=102	=102
!	!LO:TX:t:a:i:t=loco.	!
2.g#\	8ccc#L	.
.	8bb	.
.	8aa#X	.
.	8gg#	.
.	8ff#	.
.	8ee#XJ	.
=103	=103	=103
*^	*	*
N(<2.e:)	[>2.A#X: [<2.F#: 2.C#:	8eenL	.
.	.	8dd#	.
.	.	8cc#	.
.	.	8b	.
.	.	8a#X	.
.	.	8g#J	.
*v	*v	*	*
!!LO:LB:g=original
=104	=104	=104
!LO:TX:a:t=P:brak końca łuku:problem	!	!
2.A#X] 2.F#])	8f#\N)	.
.	8f##XL	.
.	8a#X	.
.	8g#	.
.	8f#X	.
.	8eJ	.
=105	=105	=105
4F# 4BB	4d#)	.
4r	4r	.
4r	4r	.
=106	=106	=106
2.rF	(>8ddd#L	>
.	8ccc#	.
.	8bb	.
.	8aa#X	.
.	8gg#	.
.	8ff#J	.
=107	=107	=107
(>2.B: 2.E#X: 2.GG#:	8ee#XL	.
.	8dd#	.
.	8cc#	.
.	8b	.
.	8a#X	.
.	8g#J	.
=108	=108	=108
4c#)	8f#L	.
.	8e#X	.
4rD	8d#	.
.	8c#	.
4rBB	8B<	.
.	8G#<J)	]
=109	=109	=109
[>2.D#^> [<2.FF#\	(>[>2.F#</	.
!!LO:LB:g=original
=110	=110	=110
\2.D#] 2.FF#\_<	2.F#<_>/	.
=111	=111	=111
*	*^	*
2.E\ 2.FF#_<	2.c# 2.A#X	2.F#<_>/	.
=112	=112	=112	=112
*^	*	*	*
2D#\	2.FF#]	2d# 2B	[>2.F#</]	.
.	.	8qf#/	.	.
4C#\	.	4e 4A#X	.	.
*v	*v	*	*	*
*	*v	*v	*
=113	=113	=113
4BB\)	4d# 4B 4F#<)]	.
4rAA	4r	.
4rAA	4r	.
=114	=114	=114
(>[>2.F#^>\	(>8e#XL	.
.	8f#	.
.	8g#	.
.	8f#	.
.	8e#	.
.	8f#J	.
=115	=115	=115
*^	*	*
2.F#]	[<2.EE	8f##XL	.
.	.	8g#	.
.	.	8a#X	.
.	.	8g#	.
.	.	8f##	.
.	.	8g#J	.
=116	=116	=116	=116
[>2.F#^>	2.EE]	8g##XL	.
.	.	8a#X	.
.	.	8b	.
.	.	8a#	.
.	.	8g##	.
.	.	8a#J	.
=117	=117	=117	=117
2.F#:]	2.BB: 2.DD#:	8bL	.
.	.	8gg#	.
.	.	8ff#	.
.	.	8ee#X	.
.	.	8een	.
.	.	8dd#J	.
*v	*v	*	*
!!LO:LB:g=original
=118	=118	=118
2.F##X\	8cc#L	.
.	8b	.
.	8a#X	.
.	8g#	.
.	8f#	.
.	8e#XJ	.
=119	=119	=119
*^	*	*
*	*^	*	*
4CC#:\	2.AA#X:	4G#:/)	8enL	.
.	.	.	8d#	.
4ryy	.	2ryy	8c#	.
.	.	.	8B	.
4ryy	.	.	8A#X<	.
.	.	.	8G#<J	.
*	*v	*v	*	*
*v	*v	*	*
=120	=120	=120
2.E 2.AA#X	8F#<L	.
.	8F##X<	.
.	8A#X<	.
.	8G#<	.
.	8F#X<	.
.	8E<J	.
=121	=121	=121
*ped	*	*
!	!	!LO:DY:b=2
!LO:S:s=1:note:problem:note-level slur	!	!
!	!	!LO:DY:rj
4AAn\ 4BBB#X	4D#<'>/)	fz
4rFF	4ryy	.
4rFF	4ryy	.
*clefG2	*	*
=122	=122	=122
*	*8va	*
(<8ddd#L	(>8dddd#L	f
8ff#	8fff#	.
8ff##X	8fff##X	.
8gg#	8ggg#	.
8aa	8aaa	.
8dd#J	8ddd#J	.
=123	=123	=123
8eeL	8eeeL	.
8ee#X	8eee#X	.
8ff#	8fff#	.
8b#X	8bb#X	.
8cc#	8ccc#	.
8cc##XJ	8ccc##XJ	.
*	*X8va	*
=124	=124	=124
!	!LO:TX:a:i:t=loco.	!
8dd#\L>	8ddd#L	.
8f#	8ff#	.
8f##X	8ff##X	.
8g#	8gg#	.
8a	8aa	.
!LO:TX:t=P:do tego taktu luk jest w gore, od 125 w gore:problem	!	!
8d#J	8dd#J	.
*Xped	*	*
.	.	.
!!LO:LB:g=original
=125	=125	=125
8eL	8eeL	.
8e#X	8ee#X	.
8f#	8ff#	.
8B#X	8b#X	.
8c#	8cc#	.
8c##XJ	8cc##XJ	.
*clefF4	*	*
=126	=126	=126
8d#L	8dd#L	.
8F#	8f#	.
8F##X	8f##X	.
8G#	8g#	.
8A	8a	.
8BB#XJ	8B#XJ	.
=127	=127	=127
8C#L	8c#L	.
8C##X	8c##X	.
8D#	8d#	.
8FF#	8F#<	.
8FF##X	8F##X<	.
8GG#J	8G#<J	.
=128	=128	=128
8AAL\	8A<L/	.
8GG#	8G#<	.
8FF##X	8F##X<	.
8GG#	8G#<	.
8BB	8B<	.
8AAJ	8A<J	.
=129	=129	=129
4GG#\)	4G#</)	.
4rFF	4r<A	.
4rFF	4r<A	.
=130	=130	=130
*ped	*	*
!	!	!LO:DY:rj
4GG#\ 4GGG#	4g# 4f# 4B#X< 4G#<	fz
4r	4r	.
4r	4r	.
=131	=131	=131
.	.	.
!LO:TX:B:a:t=1	!LO:TX:B:a:t=1	!
!LO:N:vis=1	!LO:N:vis=1	!
2.r	2.r	.
!!LO:PB:g=original
=132	=132	=132
[>2.B#X [>2.G# [<2.D#	(>[>2.ff# [>2.dd# [<2.g# [<2.f#	>
=133	=133	=133
2B#X] 2G#] 2D#]	2ff#] 2dd#] 2g#] 2f#]	.
8r	8r	.
8B# 8G# 8D#	8ff# 8g# 8f#	]
*Xped	*	*
.	.	.
=134	=134	=134
2c# 2G# 2E	2ee\ 2cc# 2g# 2e	.
4B#X 4G# 4F#	4dd#/ 4g#/ 4d#/	.
=135	=135	=135
*ped	*	*
2.B#X 2.G# 2.F#	2.dd# 2.g# 2.d#	.
=136	=136	=136
!	!LO:S:s=1:note:problem:note-level slur	!
2.B#X 2.G# 2.F#	2.dd#) 2.g# 2.d#	.
=137	=137	=137
2GG# 2GGG#	(>2dd# 2g# 2f#	.
.	.	.
*Xped	*	*
4C# 4CC#	4ee 4cc# 4g# 4e	.
=138	=138	=138
2.G# 2.GG#	2.dd# 2.b 2.g# 2.d#)	.
=139	=139	=139
*^	*	*
*	*^	*	*
!	!	!	!	!LO:DY:rj
2B 2G#	[<2.D#	2GG#\	[<2.d#	p
4A#X 4F#	.	4DD#\	.	.
*	*v	*v	*	*
=140	=140	=140	=140
2.B 2.G#	2.D#] 2.GG#	2.d#]	.
*v	*v	*	*
=141	=141	=141
!	!	!LO:DY:rj
2.E 2.EE	(>2.cc# 2.b 2.g# 2.c#	f
=142	=142	=142
(<2.CC# 2.CCC#	2.gg# 2.ee 2.b 2.g#	.
=143	=143	=143
2.EE 2.EEE	2.cc# 2.b 2.g# 2.c#	.
=144	=144	=144
2.FF# 2.FFF#	2.dd# 2.a#X 2.f# 2.e	.
!!LO:LB:g=original
=145	=145	=145
4BB'< 4BBB'<)	4b'< 4d#'<)	.
4r	4r	.
4r	4r	.
=146	=146	=146
*	*	*^
!	!	!	!LO:DY:rj
[<2.BB 2.EE\	(>[2.B</ 2.G#< 2.E<	>	p
*	*	*v	*v
=147	=147	=147
2.BB\] 2.FF#	2.B</] 2.F#< 2.D#<	.
=148	=148	=148
*	*^	*
2.BB<\ 2.EE<\	4e	2.G#</ 2.E</	.
.	4d#	.	.
.	4c#	.	]
*	*v	*v	*
=149	=149	=149
[<2.BB\ [<2.BBB\	2.B</ 2.G#</ 2.E</)	.
=150	=150	=150
*ped	*	*
2.BB]\ 2.BBB]\	2.d#< 2.B< 2.F#<	.
=151	=151	=151
!	!LO:TX:a:i:t=ten.	!
[<2.d#>	[>2.ddd#/ [>2.dd#/	.
=152	=152	=152
2.d#>]	2.ddd#/] 2.dd#/]	<
=153	=153	=153
2.DD#\ [<2.FFF##X	(>2.d# 2.D#<	.
=154	=154	=154
2.EE\ 2.FFF##X_<	2.e 2.E<	.
=155	=155	=155
2.CC##X\ 2.FFF##X_<	2.c##X 2.C##<	.
=156	=156	=156
2.DD#\ 2.FFF##X]	2.d# 2.D#<	.
.	.	.
=157	=157	=157
!	!LO:TX:a:i:t=ten.	!
[<2.DD#\ [<2.AAA#X\	[>2.d# [<2.c# [>2.F##< [>2.D#<	[
!!LO:LB:g=original
=158	=158	=158
2.DD#_<\ 2.AAA#X_<\	2.d#_< 2.c#_< 2.F##X<_> 2.D#<_>	.
=159	=159	=159
2.DD#_<\ (<2.AAA#X_<\	[<2.d#_< 2.c#_< 2.F##X<_> 2.D#<_>	.
=160	=160	=160
!	!LO:TX:a:t=P:podwójny łuk od 2.d# 2.c# do 2.e 2.d#:problem	!
!LO:TX:t=P:podwójny łuk od 2.DD 2.AAA## do 2.G 2.E:problem	!	!
2.DD#\] 2.AAA##X\)	[<2.d#)] (<2.c#] (>2.F##X<] (>2.D#<]	.
=||161	=||161	=||161
*kcancel	*kcancel	*
*k[b-e-a-d-]	*k[b-e-a-d-]	*
!	!	!LO:DY:b=2
*	*ped	*
!	!LO:TX:a:t=P:kasowniki po podwojnej kresce:problem	!
4EEE-'</	(>2.e-) 2.d#] 2.G<) 2.E-<)	fz
4rEE	.	.
4rEE	.	.
=162	=162	=162
*^	*	*
2.f	2.E-	2.dd- 2.g	.
*	*	*Xped	*
.	.	.	.
*v	*v	*	*
=163	=163	=163
4e- 4A-	4cc/ 4a-/	>
8rF	8r	.
8d- 8A-	8b- 8e-	.
4c 4A-	4a- 4e-	.
=164	=164	=164
2.e- 2.A-	2.cc\ 2.a-\	]
=165	=165	=165
!	!LO:TX:a:i:t=ten.	!
[>2.B- [<2.F	[>2.b- [<2.a- [<2.dn	.
=166	=166	=166
[>2.B- 2.F]	2.b-_> 2.a-_< 2.dnX_<	.
=167	=167	=167
*^	*	*
!	!	!	!LO:HP:b=2
[>2.B-/]	2G	2.b-_> 2.a-_< 2.dnX_<	>
.	4F	.	.
=168	=168	=168	=168
2.B-]	2C	2.b-] 2.a-]) 2.dn]	.
.	4BB-	.	]
*v	*v	*	*
!!LO:LB:g=original
=169	=169	=169
*ped	*	*
4EE-'<	4r	.
4r	(>4e-'> 4c'>	.
4c	4a-'> 4e-'>	.
=170	=170	=170
4e->	4cc'> 4a-'>	.
4a->	4ee-'> 4cc'>	.
4cc>	4aa-'> 4ee-'>	.
=171	=171	=171
2.ee->	2.ccc'> 2.aa-	.
*Xped	*	*
=172	=172	=172
2.aa-> 2.dd>	2.fff'> 2.ccc-X	.
=173	=173	=173
4gg> 4ee->	4eee-'> 4bb-'>	.
4ee-> 4an>	4ccc'> 4gg-X'>	.
4dd-> 4b->	4ddd-'> 4ff'>	.
=174	=174	=174
4dd-> 4gn>	4bb-'> 4ff-X'>	.
4cc> 4a-X>	4ccc'> 4ee-'>	.
4cc> 4fn>	4aa-'> 4ee-'>	.
=175	=175	=175
2.a-> 2.B->	2.ff 2.dd-	.
=176	=176	=176
2.g> 2.e->	2.ee- 2.b-	.
=177	=177	=177
4e-> 4A-	4cc 4a-)	.
4r	4r	.
4r	4r	.
=178	=178	=178
*ped	*	*
(>[>2.E-	(>[<2.e-^	.
=179	=179	=179
2.E-]	2.e-]	.
!!LO:LB:g=original
=180	=180	=180
4AA-	4c	<
4.E-	4.a-	.
8e-	8ee-	.
=181	=181	=181
2.e-	2.ee-	[[
*Xped	*	*
=182	=182	=182
2d-	2dd-	>
4c	4cc	.
=183	=183	=183
2.c	2.cc	.
=184	=184	=184
2.c)	2.cc)	]
=185	=185	=185
*^	*	*
2.C	[<2.EEn	(>2.cc [>2.g 2.c	<
=186	=186	=186	=186
2.D-	2.EEnX_<	2.dd- 2.g_> 2.d-	.
=187	=187	=187	=187
2.BBn	2.EEnX_<	2.bn 2.g_> 2.Bn	.
=188	=188	=188	=188
2.C	2.EEnX]	2.cc 2.g] 2.c	[[
*v	*v	*	*
=189	=189	=189
*ped	*	*
!	!LO:TX:a:i:t=ten.	!
[>2.G [<2.C [<2.GG	[>2.cc [>2.b- [<2.en [<2.c	>
=190	=190	=190
2.G_> 2.C_< 2.GG_<	2.cc_> 2.b-_> 2.enX_< 2.c_<	.
=191	=191	=191
2.G_> 2.C_< 2.GG_<	[>2.cc 2.b-_> 2.enX_< 2.c_<	.
=192	=192	=192
2.G] 2.C] 2.GG]	2.cc] 2.b-] 2.enX] 2.c])	]]
=193	=193	=193
4CC'<	2.rdd	fz
4r	.	.
4r	.	.
!!LO:PB:g=original
=194	=194	=194
!	!LO:S:s=1:note:problem:note-level slur	!
2.dn 2.C	(>2.b- 2.en	>
*Xped	*	*
.	.	.
=195	=195	=195
4c 4F	4an 4f)	.
8r	8r	.
8B- 8F	(>8g 8c	.
4An 4F	4f 4c	.
=196	=196	=196
2.c 2.F	2.an 2.f	]
=197	=197	=197
[>2.Bn [<2.Dn	[<2.g^< [<2.f^<	.
=198||	=198||	=198||
*kcancel	*kcancel	*
*k[f#c#g#d#]	*k[f#c#g#d#]	*
2.B_> 2.DnX_<	2.gnX] 2.fnX]	<
=199	=199	=199
!LO:N:vis=2	!	!
2.B] 2.DnX]	2.g#X 2.e#X	.
=200	=200	=200
(<2.DDn	2.a 2.f#X 2.B#X	[[
=201	=201	=201
*ped	*	*
!	!	!LO:DY:b=2
4CC#\)	4a#X 4f# 4c#)	.
4C#\	(>4c#< 4A#X</	.
4A	4f#'> 4c#'>	.
=202	=202	=202
4c#>\	4a#X'>/ 4f#'>	.
4f#>\	4cc#'>/ 4a#'>	.
4a#y>\	4ff#'>/ 4cc#'>	.
=203	=203	=203
2.cc#>\	2.aa#X/ 2.ff#	.
=204	=204	=204
2.ff#> 2.b#X>	2.ddd# 2.aan	.
!!LO:LB:g=original
=205	=205	=205
4ee#X> 4cc#>\	4ccc#'>/ 4gg#'>	.
4f##X>\ 4cc#>	4aa#X'>/ 4een'>	.
4b> 4g#>\	4bb'>/ 4dd#	.
=206	=206	=206
4b> 4e#X>	4gg#'> 4dd#'>	.
4a#X>\ 4A#X>	4aa#X'>/ 4cc##X'>	.
4a#> 4d#>	4ff#'> 4dd#'>	.
=207	=207	=207
2.d#> 2.f#>	2.dd# 2.a#X	.
=208	=208	=208
2.g#> 2.c#>	2.ee#X 2.cc#	.
=209	=209	=209
4a> 4B#X>	4ff#'> 4dd#'>)	.
4rD	4rb	.
4rD	4rb	.
=210	=210	=210
(<[<2.AA\	(>[>2.A<^>/	>
=211	=211	=211
2AA]\	2A<]/	.
8GG#L\	8G#<L	.
8GGnJ\	8Gn<J	]
=212	=212	=212
8FF#L\	8F#<L	.
8FFn\	8Fn<	.
8EE\	8E<	.
8DD#\	8D#<	.
8DDn\	8Dn<	.
8CC#J\	8C#<J	.
=213	=213	=213
*ped	*	*
4BBB#X\)	4BB#X<)	.
4rEE	4r<F	.
4rEE	4r<F	.
!!LO:LB:g=original
=214	=214	=214
(>2.d#	(>2.dd#	>
*Xped	*	*
=215	=215	=215
2F#	2f#	.
4G#	4g#	.
=216	=216	=216
2B	2b/	.
4A)	4a)	]
=217	=217	=217
(>4CC#^<	(>2.g# [<2.e#X [<2.B	.
8BBB#XL	.	<
8CC#	.	.
8BB#X	.	.
8C#J	.	.
=218	=218	=218
8DnL	2.a 2.e#X] 2.B]	.
8C#	.	.
8BB#X	.	.
8C#	.	.
8dn	.	.
8c#J)	.	[
=219	=219	=219
*	*^	*
*	*^	*	*
!	!	!	!LO:N:vis=2	!
4C#	4g#)	(<4B]	4.e#X]	.
4r	2ryy	(>/8AL)	.	.
.	.	8c#	4c#\	<
4r	.	8a	.	.
.	.	8g#J	8ryy	.
*	*v	*v	*	*
*	*v	*v	*
=220	=220	=220
[>2.f# 2.c# 2.A	8f#L	.
.	8f##X	.
.	8g#	.
.	8a	.
.	8a#X	.
.	8bJ	[
!!LO:LB:g=original
=221	=221	=221
*^	*	*
(>4f#/]	2c# 2G#	8b#XL/	<
.	.	8cc#	.
4e)	.	8f##X	.
.	.	8g#	.
*ped	*	*	*
4C#	4ryy	8ee	.
.	.	8dd#J	.
*v	*v	*	*
=222	=222	=222
4e'> 4c#'> 4G#'>	8cc#L	.
.	8dd#	.
4r	8ee	.
.	8ee#X	.
*Xped	*	*
4r	8ff#	.
.	8ff##XJ	.
=223	=223	=223
*^	*	*
(>4e	2A 2F#	8gg#L	.
.	.	8aa	.
*ped	*	*	*
4dn)	.	8bb	.
.	.	8aa	.
4FF#'</	4ryy	8fff#	.
.	.	8eeeJ	.
*v	*v	*	*
=224	=224	=224
*	*8va	*
4dn'> 4A'> 4F#'>	8dddnL	.
.	8eee	.
4r	8fff#	.
.	8gggn	.
*Xped	*	*
4r	8ggg#X	.
.	8aaaJ	.
=225	=225	=225
(>2.c#: 2.E#X: 2.GG#:	8fff#XL	.
.	8ggg#	.
.	8aaa#X	.
.	8ggg#	.
.	8eeee#X	.
.	8dddd#J	[
=226	=226	=226
2.G#	8cccc#L	>
.	8bbb#X	.
.	8aaa#X	.
.	8ggg#	.
.	8fff#	.
.	8eee#XJ	]
*	*X8va	*
!!LO:LB:g=original
=227	=227	=227
!	!LO:TX:a:i:t=loco.	!
2.e#X	8ddd#L	.
.	8ccc#	.
.	8bb#X	.
.	8aa#X	.
.	8gg#	.
*Xped	*	*
.	8ff##XJ	.
=228	=228	=228
2.f#)	8ff#L	.
.	8ee#X	.
.	8dd#	.
.	8cc#	.
.	8b#X	.
.	8a#XJ	]
=229	=229	=229
*ped	*	*
8qGG#/	.	.
*^	*	*
2.e#X	[<2.B# [<2.G# [<2.F#	8g#L	<
.	.	8a#X	.
.	.	8b#X	.
.	.	8cc#	.
.	.	8dd#	.
.	.	8ee#XJ	.
*Xped	*	*	*
=230	=230	=230	=230
2.d#/	2.B#X\] 2.G#\] 2.F#\]	8ff#L	.
.	.	8gg#	.
.	.	8bb#X	.
.	.	8aa#X	.
.	.	8gg#	.
.	.	8ff#J	[
*v	*v	*	*
=231	=231	=231
*^	*	*
(>4d#:/	4G#: 4C#:	8ee#XL	>
.	.	8gg#	.
4e#X/	2ryy	8eee#X	.
.	.	8bb#X	.
4G#/	.	8ddd#	.
.	.	8ccc#J	.
*v	*v	*	*
=232	=232	=232
4c#)	8gg#L>	.
.	8ee#X	.
4r	8dd#	.
.	8cc#	.
4r	8g#	.
.	8c#J)	]
!!LO:PB:g=original
=233	=233	=233
(>4DD#^<	2.a#X [<2.f##X [<2.c#	.
!	!	!LO:HP:b=2
8CC##XL	.	<
8DD#	.	.
8C##X	.	.
8D#J	.	.
=234	=234	=234
8EL	2.b 2.f##] 2.c#]	.
8D#	.	.
8C##X	.	.
8D#	.	.
8e	.	.
8d#J	.	.
=235	=235	=235
*	*^	*
*	*	*^	*
4D#)	(>4a#X	2.f##X/	4c#\	[<
4r	8B/L	.	2ryy	.
.	8d#/	.	.	.
4r	8b/	.	.	.
.	8a#/J	.	.	.
*	*v	*v	*v	*
*clefG2	*	*
=236	=236	=236
[2.g# [<2.d# 2.B	8g#L	.
.	8an	.
.	8a#X	.
.	8b	.
.	8b#X	.
.	8cc#J	.
=237	=237	=237
*^	*	*
*ped	*	*	*
4g#]	2d#] 2A#X	8cc##XL	.
.	.	8dd#	.
4f#	.	8a#X	.
.	.	8dd#	.
*clefF4	*	*	*
4ryy	4D#'</	8aa#X	.
.	.	8gg#J	.
*v	*v	*	*
=238	=238	=238
4f#'> 4d#'> 4A#X'>	8ff#\L	.
.	8gg#\	.
4r	8aa#X\	.
*Xped	*	*
.	8bb\	.
4r	8bb#X\	.
.	8ccc#\J	.
!!LO:LB:g=original
=239	=239	=239
*^	*	*
*	*	*8va	*
(>4f#	2B 2G#	8ccc##XL<	.
.	.	8ddd#	.
4e)	.	8eee	.
*ped	*	*	*
.	.	8bb	.
4GG#'>\	4ryy	8ggg#	.
.	.	8fff#J	.
*v	*v	*	*
=240	=240	=240
4e'> 4B'> 4E'>	8eee\L	.
.	8fff#\	.
*Xped	*	*
4r	8ggg#\	.
.	8ggg##X\	.
4r	8aaa#X\	.
.	8bbb\J	[
=||241	=||241	=||241
*kcancel	*kcancel	*
*k[b-e-a-]	*k[b-e-a-]	*
*ped	*	*
2.e-: 2.G: 2.BB-:	8aaan\L	>
.	8bbb-\	.
.	8cccc\	.
.	8bbb-\	.
.	8eeee-\	.
.	8cccc\J	.
=242	=242	=242
2.B-	8bbb-\L	.
.	8cccc\	.
.	8bbb-\	.
.	8aaan\	.
.	8aaa-X\	.
.	8ggg\J	.
=243	=243	=243
2.g	8fff\L	.
.	8eee-\	.
.	8ddd\	.
.	8ccc\	.
.	8bb-\	.
.	8aan\J	.
*	*X8va	*
=244	=244	=244
!	!LO:TX:a:i:t=loco.	!
2.a-	8aa-XL	.
.	8gg	.
.	8ff	.
.	8ee-	.
.	8dd	.
.	8ccJ	]
!!LO:LB:g=original
=245	=245	=245
8qBB-/	.	.
2.g [>2.dn [<2.B- [<2.A-	8b-L	<
.	8cc	.
.	8dd	.
.	8ee-	.
.	8ff	.
.	8ggJ	.
=246	=246	=246
2.f 2.d] 2.B-] 2.A-]	8aa-L	.
.	8bb-	.
.	8ddd	.
.	8ccc	.
.	8bb-	.
.	8aa-J	[[
=247	=247	=247
*^	*	*
(<4f/	4f 4B- 4E-	8ggL	>
.	.	8bb-	.
4g/	2ryy	8ggg	.
.	.	8ddd	.
4B-/	.	8fff	.
.	.	8eee-J	.
*v	*v	*	*
=248	=248	=248
4e-)\	8bb-L	.
.	8gg	.
4r	8ee-	.
.	8b-J	.
4r	4e-/)	]
*Xped	*	*
=||249	=||249	=||249
*kcancel	*kcancel	*
*k[f#c#g#d#]	*k[f#c#g#d#]	*
*	*^	*
*ped	*	*	*
(>4BB/	(>4.ff#	8ff#L	.
.	.	8a	.
4d#	.	8b	.
.	4.gg#	8gg#	.
4B	.	8a	.
*Xped	*	*	*
.	.	8bJ	.
=250	=250	=250	=250
*^	*	*	*
4E\	2.E/	4.ee	8eeL	.
.	.	.	8g#	.
4e\	.	.	8b	.
.	.	4.ff#	8ff#	.
4c#\	.	.	8g#	.
.	.	.	8a#XJ	.
!!LO:LB:g=original
=251	=251	=251	=251	=251
4F#\	2.F#/	4.dd#	8dd#L	.
.	.	.	8f#	.
4d#\	.	.	8a#X	.
.	.	4.ee	8ee	.
4B\	.	.	8f#	.
.	.	.	8g#J	.
*v	*v	*	*	*
=252	=252	=252	=252
*ped	*	*	*
4FF#/	4.cc#	8cc#L	.
.	.	8e	.
4A#X	.	8g#	.
.	4.dd#	8dd#	.
4F#	.	8e	.
*Xped	*	*	*
.	.	8f#J	.
=253	=253	=253	=253
4BB/	4.cc#	8cc#L	.
.	.	8e	.
4B\	.	8f#	.
*ped	*	*	*
.	4.b	8b	.
4F#\	.	8d#	.
.	.	8f#J	<
*	*v	*v	*
=254	=254	=254
4d#	8bL	.
.	8dd#	.
4B	8ff#	.
.	8bb	.
*clefG2	*	*
4f#	8bbb	.
.	8ggg#J	[[
=255	=255	=255
4dd#^>)	8fff#L	>
.	8ccc#	.
4r	8bb	.
.	8gg#	.
4r	8ff#	.
*Xped	*	*
.	8cc#J	.
=256	=256	=256
2.rdd	8bL	.
.	8g#	.
.	8f#	.
.	8c#J	.
.	4B^>)	]
.	.	.
*clefF4	*	*
!!LO:LB:g=original
=257	=257	=257
*	*^	*
*	*	*^	*
*ped	*	*	*	*
4BBB'<	(>4bb	4.ff#	8ff#\L	]
.	.	.	8a\	.
(>4d#	4ryy	.	8b\	.
.	.	4.gg#/	8gg#\	.
4B	4ryy	.	8a\	.
*Xped	*	*	*	*
.	.	.	8b\J	.
*	*	*v	*v	*
=258	=258	=258	=258
*^	*	*	*
4E\	2.E/	4.ee	8eeL	.
.	.	.	8g#	.
4e\	.	.	8b	.
.	.	4.ff#	8ff#	.
4c#\	.	.	8g#	.
.	.	.	8a#XJ	.
=259	=259	=259	=259	=259
*	*	*	*^	*
4F#	2.F#	4ff#	4.dd#/	8dd#\L	.
.	.	.	.	8f#\	.
4d#	.	2ryy	.	8a#X\	.
.	.	.	4.ee/	8ee\	.
4B	.	.	.	8f#\	.
.	.	.	.	8g#\J	.
*v	*v	*	*	*	*
*	*	*v	*v	*
=260	=260	=260	=260
*ped	*	*	*
4FF#'</	4.cc#	8cc#L	.
.	.	8e	.
4A#X	.	8g#	.
.	4.dd#	8dd#	.
4F#)	.	8e	.
*Xped	*	*	*
.	.	8f#J	.
=261	=261	=261	=261
(>4BB/	4.cc#	8cc#L	.
.	.	8e	.
4B	.	8f#	.
.	4.b	8b	.
*ped	*	*	*
4F#	.	8d#	.
.	.	8f#J	<
*	*v	*v	*
=262	=262	=262
4d#	8bL	.
.	8dd#	.
4B	8ff#	.
.	8bb	.
*clefG2	*	*
4f#	8bbb	.
.	8ggg#J	[
!!LO:LB:g=original
=263	=263	=263
4ff#^>)	8fff#L	>
.	8ccc#	.
4r	8bb	.
.	8gg#	.
4r	8ff#	.
*Xped	*	*
.	8cc#J	.
=264	=264	=264
2.rdd	8bL	.
.	8g#	.
.	8f#	.
.	8c#J	.
.	4B^<)	]
*clefF4	*	*
=265	=265	=265
*	*^	*
*	*	*^	*
*ped	*	*	*	*
(>4BBB'<	(>8bb	4.ff#/	8ff#\L	]
.	8ryy	.	8a\	.
4d#	2ryy	.	8b\	.
.	.	4.gg#/	8gg#\	.
4B	.	.	8a\	.
*Xped	*	*	*	*
.	.	.	8b\J	.
*	*	*v	*v	*
=266	=266	=266	=266
*^	*	*	*
4E\	2.E/	4.ee	8eeL	.
.	.	.	8g#	.
4e\	.	.	8b	.
.	.	8bb	8bb	.
4c#\	.	4ryy	8g#	.
.	.	.	8bJ	.
=267	=267	=267	=267	=267
4F#\	2.F#/	4.ff#/	8dd#\L	.
.	.	.	8f#\	.
4d#\	.	.	8a#X\	.
.	.	4.ee/	8ee\	.
4B\	.	.	8f#\	.
.	.	.	8g#\J	.
*v	*v	*	*	*
=268	=268	=268	=268
*ped	*	*	*
4FF#'<	4.cc#	8cc#\L	.
.	.	8e	.
4A#X	.	8g#	.
.	8ff#	8ff#	.
[>4F#	4ryy	8e	.
*Xped	*	*	*
.	.	8f#J	.
!!LO:PB:g=original
=269	=269	=269	=269
*^	*	*	*
2F#]	[<2.BB	4b	8bL	.
.	.	.	8d#	.
.	.	8ryy	8f#	.
.	.	4cc#	8cc#	>
[>4G#	.	.	8d#	.
.	.	8ryy	8eJ	.
=270	=270	=270	=270	=270
!LO:N:vis=2.	!	!	!	!
*ped	*	*	*	*
2G#]	2.BB_<	4a	8aL	.
.	.	.	8c#	.
.	.	8ryy	8e	.
.	.	4dd#	8dd#	.
[>4F#	.	.	8c#	.
.	.	8ryy	8d#J	.
*Xped	*	*	*	*
=271	=271	=271	=271	=271
!LO:N:vis=2.	!	!	!	!
2F#]	2.BB_<	4g#	8g#L	.
.	.	.	8B	.
.	.	8ryy	8d#	.
.	.	4a	8a	.
[>4E	.	.	8B	.
.	.	8ryy	8c#J	.
=272	=272	=272	=272	=272
*ped	*	*	*	*
2E]	2.BB_	4f#	8f#L	.
.	.	.	8A	.
.	.	8ryy	8c#	.
.	.	4b	8b	.
4D#)	.	.	8A	.
.	.	8ryy	8BJ)	.
*	*	*v	*v	*
=273	=273	=273	=273
(>4A	[<2.BB [<2.EE	(>2.B	.
4G#	.	.	.
4F#	.	.	.
=274	=274	=274	=274
4G#	2.BB_< 2.EE_<	2.c#	.
4F#	.	.	.
4E	.	.	.
=275	=275	=275	=275
4F#	2.BB_< 2.EE_<	2.G#	.
4E	.	.	.
4D#	.	.	.
!!LO:LB:g=original
=276	=276	=276	=276
4E	2.BB] 2.EE]	2.c#	.
4D#	.	.	.
4C#)	.	.	.
*v	*v	*	*
=277	=277	=277
!	!LO:TX:i:t=ten.	!
[<2.BB\ (<2.DD#\	[>2.B<^>/ [>2.A<^>/ [>2.F#<^>/	.
=278	=278	=278
2.BB_<\ 2.EE\	2.B<_>/ 2.A<_> 2.F#<_>	.
=279	=279	=279
2.BB_\ 2.CC#\	2.B<_>/ 2.A<_> 2.F#<_<	.
=280	=280	=280
2.BB\ 2.DD#\	2.B<_>/ 2.A<_< 2.F#<]	.
=281	=281	=281
*ped	*	*
!	!LO:N:vis=2	!
!	!	!LO:DY:b=2
!	!	!LO:DY:rj
4BBB'<\)	2.B<_/ 2.A<] 2.D#<)	fz
4rEE	.	.
4rEE	.	.
=282	=282	=282
2.B] 2.F# 2.BB	(>2.a 2.d#	>
=283	=283	=283
4B 4E	4g# 4e)	.
*Xped	*	*
.	.	.
8r	8r	.
8A 8E	(>8f# 8B	.
4G# 4E	4e 4B	.
=284	=284	=284
2.B 2.E	2.g# 2.e	]
=285	=285	=285
*^	*	*
*	*	*	*^
!	!	!LO:TX:a:i:t=ten.	!	!
[>\2.F#	2.C#	[>2.f# [>2.e [<2.A#X	>	.
=286	=286	=286	=286	=286
!	!	!	!	!LO:HP:b=2
2.F#_>	2BB#X	2.f#_> 2.e_> 2.A#_<	.	<
.	4C#	.	.	.
=287	=287	=287	=287	=287
2.F#_>	2D#	2.f#_> 2.e_> 2.A#X_<	]]	[
.	4C#	.	.	.
!!LO:LB:g=original
=288	=288	=288	=288	=288
!	!	!	!	!LO:HP:b=2
2.F#]	2GG#	2.f#]) 2.e] 2.A#X]	.	>
.	4FF#	.	.	]
*v	*v	*	*	*
*	*	*v	*v
=289	=289	=289
*ped	*	*
4BBB'>/	4r	.
4BB\	(>4B<'>/ 4G#<'>/	.
4G#\	4e'>/ 4B	.
=290	=290	=290
4B>\	4g#'>/ 4e'>	.
4e>\	4b'>/ 4g#'>	.
4g#>\	4ee'>/ 4b'>	.
=291	=291	=291
2.b>\	2.gg#/ 2.ee	.
*Xped	*	*
.	.	.
=292	=292	=292
2.ee> 2.a#X>\	2.ccc#/ 2.ff##	.
=293	=293	=293
4dd#>\ 4b>	4bb'>/ 4ff#X'>	.
4b>\ 4e#X>	4gg#'>/ 4ddn'>	.
4a>\ 4f#>	4aa'>/ 4cc#'>	.
=294	=294	=294
4a>\ 4d#>	4ff#'>/ 4cc#'>	.
4g#>\ 4G#>	4gg#'>/ 4b#X'>	.
4g#>\ 4c#>	4ee'>/ 4cc#'>	.
=295	=295	=295
2.e>\ 2.c#>	2.cc#/ 2.g#	.
=296	=296	=296
2.f#>\ 2.B>	2.dd#/ 2.b	.
=297	=297	=297
*ped	*	*
4B 4E	4ee\) 4g#\	.
4r	4r	.
4r	4r	.
=298	=298	=298
[<2.BB	(>[>2.B<^>	.
=299	=299	=299
2.BB]	2.B<]	.
!!LO:LB:g=original
=300	=300	=300
4EE\	4G#</	<
4.BB\	4.e/	.
8B\	8b/	.
=301	=301	=301
2.B	[>2.b	[
=302	=302	=302
*^	*^	*
[>2.B	2A	[>2.b]	2a	.
.	4G#	.	4g#	.
=303	=303	=303	=303	=303
2.B]	2.G#]	2.b]	2.g#	<
=304	=304	=304	=304	=304
4c#	2F#	4cc#	2f#	.
4d#	.	4dd#	.	.
4e	4G#	4ee/) 4g#	4ryy	[
*	*	*v	*v	*
=305	=305	=305	=305
*ped	*	*	*
2.BB	[<2.EE	2.b/ (>/2.e 2.B/	f
.	.	.	<
*Xped	*	*	*
=306	=306	=306	=306
2.C#	2.EE]	2.cc#/ /2.e 2.c#/	.
=307	=307	=307	=307
2.GG#	[<2.EE	2.g#/ 2.e/ 2.G#/	.
.	.	.	.
=308	=308	=308	=308
.	.	(<8qd#/	.
4D#	2EE]	4dd# 4d#)	.
4.C#	.	4.cc# 4.c#	.
.	4ryy	.	.
8BB	.	8b 8B	[[
=309	=309	=309	=309
!	!	!LO:TX:a:i:t=ten	!
[>2.BB	2.DD#	[>2.b [>2.a [<2.f# [<2.B	.
=310	=310	=310	=310
2.BB_>	2.EE	2.b_> 2.a_> 2.f#_< 2.B_<	.
=311	=311	=311	=311
2.BB_>	2.CC#	2.b_> 2.a_> 2.f#_< 2.B_<	.
!!LO:LB:g=original
=312	=312	=312	=312
!	!	!LO:N:vis=2	!
2.BB]	4DD#	2.b]) 2.a] 2.f#] 2.B]	.
.	4.CC#	.	.
.	8BBB	.	.
=313	=313	=313	=313
*	*	*ped	*
!	!	!	!LO:DY:b=2
!	!	!	!LO:DY:rj
2.BB	4BBB	(>2.B	fz
.	4rDD	.	.
.	4rDD	.	.
*v	*v	*	*
=314	=314	=314
2.B 2.F# 2.BB	2.a 2.d#	>
=315	=315	=315
4B 4E	4g# 4e	.
*	*Xped	*
8r	8r	.
8A 8E	8f# 8B	.
4G# 4E	4e 4B	.
=316	=316	=316
2.B 2.E	2.g# 2.e	]
=317	=317	=317
!	!LO:TX:a:i:t=ten.	!
(<2.Dn N[>2.E	[>2.e [>2.B< [>2.G#<	>
=318	=318	=318
2EE\	2.e_>/ 2.B<_ 2.G#<_> [>2.E<N]	]
4DD#X\	.	.
=319	=319	=319
2EE\	2.e_>/ 2.B<_> 2.G#<_> 2.E<_>	.
4EE#X\	.	.
=320	=320	=320
2FF#\	2.e_> 2.B<_> 2.G#<_> 2.E<_>	.
4EEn\)	.	.
=321	=321	=321
*ped	*	*
!	!LO:S:s=2:note:problem:note-level slur	!
4DDn\	4e]) 4B<] 4G#<] 4E<]	.
4r	4ryy	.
4G#	(>4e'> 4B'>	.
=322	=322	=322
4B>	4g#'> 4e'>	.
4e>	4b'> 4g#'>	.
4g#>	4ee'> 4b'>	.
=323	=323	=323
2.b>	2.gg# 2.ee	.
*Xped	*	*
=324	=324	=324
2.ddn> 2.a>	2.ccc# 2.ff#	.
!!LO:LB:g=original
=325	=325	=325
4ddn> 4g#>	4bb'> 4ff#'>	.
4dd> 4b>	4gg#'> 4ee'>	.
4cc#> 4a>	4aa'> 4ee'>	.
=326	=326	=326
4a> 4dn>	4ff#'> 4ddn'>	.
4g#> 4e>	4ee'> 4b'>	.
4e> 4A>	4cc#'> 4a'>	.
=327	=327	=327
*^	*	*
2.dn\	2A 2Dn	2.a 2.f#	.
.	4ryy	.	.
*v	*v	*	*
=328	=328	=328
2.dn 2.G# 2.E	2.b 2.e	.
=329	=329	=329
4A 4E 4AA	4cc#'< 4a'< 4e'< 4c#'<)	.
4r	4r	.
4r	4r	.
=330	=330	=330
*ped	*	*
(<[>2.E	(>[<2.e^<	.
=331	=331	=331
2.E]	2.e]	<
.	.	.
=332	=332	=332
4AA	4c#	.
4.E	4.a	.
8e	8ee	[[
=333	=333	=333
2.e	2.ee	.
*Xped	*	*
.	.	.
=334	=334	=334
2d#	2dd#	>
4c#	4cc#	.
=335	=335	=335
2.c#	2.cc#	.
=336	=336	=336
2.c#	2.cc#	]]
=337	=337	=337
.	(<8qcc#/	fz
*ped	*	*
4e'> 4A'>)	4f#))	.
4r	4r	.
4r	4r	.
!!LO:PB:g=original
=338	=338	=338
2.rF	(>8b#XL	<
.	8cc#	.
.	8dd#	.
*Xped	*	*
.	8cc#	.
.	8gg#	.
.	8ff#J	.
*clefG2	*	*
=339	=339	=339
4f#^> 4e^> 4A^>	8gg#L	.
.	8ff#	.
4r	8ee#X	.
.	8ff#	.
4r	8ddd#	.
.	8ccc#J	.
=340	=340	=340
*	*8va	*
4g#^> 4e^> 4B^>	8aa#XL	.
.	8bb	.
4r	8ddd#	.
.	8eeeJ	.
4r	4eeee)	[
=341	=341	=341
*^	*	*
*	*	*	*^
*	*	*	*	*
!	!	!	!LO:HP:b=2	!
(>4b^>	2.e 2.c#	(>8dddd#L	<	>
.	.	8bbb#X	.	.
4a	.	8dddd#	.	.
.	.	8cacc#	.	.
4cc#	.	8aaa	.	.
.	.	8eeeJ	.	.
*	*	*X8va	*	*
*v	*v	*	*	*
=342	=342	=342	=342
!	!LO:TX:a:i:t=loco.	!	!
4ee)	8ddd#L	.	.
.	8ccc#	[	.
4r	8aa	.	.
.	8ee	.	.
4r	8dd#	.	.
.	8cc#J	.	.
*clefF4	*	*	*
=343	=343	=343	=343
2.rF	8aL	.	.
.	8e	.	.
.	8d#	.	.
.	8c#	.	.
.	8A<	.	.
.	8E<J)	.	]
*	*	*v	*v
!!LO:LB:g=original
=344	=344	=344
4AAA'<	2.rdd	.
4r	.	.
4r	.	.
=345	=345	=345
*	*^	*
.	(<8qcc#/	.	.
*ped	*	*	*
!	!	!	!LO:DY:rj
4F#'< 4AA#X'<	4f#)	4e 4c#	fz
4r	4ryy	4r	.
4r	4ryy	4r	.
*	*v	*v	*
=346	=346	=346
2.rF	(>8b#XL	<
.	8cc#	.
.	8dd#	.
.	8cc#	.
.	8gg#	.
.	8ff#J	.
*clefG2	*	*
=347	=347	=347
4f#^> 4e^> 4A#X^>	8gg#L	.
.	8ff#	.
4r	8ee#X	.
.	8ff#	.
4r	8ddd#	.
.	8ccc#J	.
=348	=348	=348
*	*8va	*
4g#^> 4e^> 4B^>	8aa#XL	.
.	8bb	.
4r	8ddd#	.
.	8eeeJ	.
4r	4eeee)	[
=349	=349	=349
*^	*	*
*	*	*	*^
*	*	*	*	*
!	!	!	!LO:HP:b=2	!
(>4b^>	2.e 2.c#	(>8dddd#L	<	>
.	.	8bbb#X	.	.
4a#X	.	8dddd#	.	.
.	.	8cccc#	.	.
4cc#	.	8aaa#X	.	.
.	.	8eeeJ	.	.
*	*	*X8va	*	*
*v	*v	*	*	*
=350	=350	=350	=350
!	!LO:TX:a:i:t=loco.	!	!
4ee\)	8ddd#L	[	.
.	8ccc#	.	.
4r	8aa#X	.	.
.	8ee	.	.
4r	8dd#	.	.
.	8cc#J	.	.
*clefF4	*	*	*
!!LO:LB:g=original
=351	=351	=351	=351
2.rF	8a#L	.	.
.	8e	.	.
.	8d#	.	.
.	8c#	.	.
.	8A#<	.	.
.	8E<J)	.	]
*	*	*v	*v
=352	=352	=352
4FFF#'<	2.rdd	.
4r	.	.
4r	.	.
=353	=353	=353
*^	*	*
(<8qF#/	.	.	.
4BB<)	4DD#	4A</ 4B<	.
!	!	!LO:TX:i:t=cresc _:problem:dynamics with extention lines	!
!	!	!	!LO:TX:i:t=cresc
4rAyy	4rEE	4rf	<
4rAyy	4rEE	4rf	.
*v	*v	*	*
=354	=354	=354
N(>8AA#XL\	4rcc	.
8BB	.	.
8C#	4rcc	.
8BBJ	.	.
4rBB	8c#<L	.
.	8B<JN)	[
=355	=355	=355
4BB\ 4DD#	4B<^>/ 4A<^> 4F#<^>	.
!	!LO:TX:i:t=ed_ accel:dur=:29q:ext=ud:problem:text with extension lines	!
4rBB	4r<B	.
4rBB	4r<B	.
=356	=356	=356
4BB\ 4EE	4c#<^>/ 4B<^> 4G#<^>	.
4rBB	4r<B	.
4rBB	4r<B	.
=357	=357	=357
*^	*	*
*	*	*^	*
(<4E\	2.FF#\	(<4e/	2.B</ 2.A<	<
.	.	.	.	.
4D#\	.	4d#/	.	.
4F#\	.	4f#/	.	.
*	*	*v	*v	*
*v	*v	*	*
=358	=358	=358
4B)	4b/)	[
4r	4r	.
4r	4r	.
=359	=359	=359
*^	*^	*
(>4F#	2.GG#	(>4f#	2.c#^<\ 2.B^<	.
4E#X	.	4e#X	.	<
4G#	.	4g#	.	.
*v	*v	*	*	*
*	*v	*v	*
!!LO:LB:g=original
=360	=360	=360
4c#)	4cc#)	[
4r	4r	.
4r	4r	.
=361	=361	=361
.	(>8qc#/	.
4AA\ 4AAA	4f# 4e 4F#<)	.
4r	4r	.
4r	4r	.
=362	=362	=362
2.rD	(>8E#X<L	.
.	8F#<	.
.	8G#<	.
.	8F#<	.
.	8g#	.
.	8f#J)	.
=363	=363	=363
4F# 4AA	4f#^< 4e^< 4c#^<	.
4r	4r	.
4r	4r	.
=364	=364	=364
4G# 4BB	4g#^< 4e^< 4dn^<	.
4r	4r	.
4r	4r	.
=365	=365	=365
*^	*^	*
(>4B	2C#	(>4b	2g#^< 2e^<	<
4A#X	.	4a#X	.	.
4e	4rBByy	4ee/	4rdyy	.
*v	*v	*	*	*
*	*v	*v	*
=366	=366	=366
4gn)	4ggn)	[
4r	4r	.
4r	4r	.
=367	=367	=367
*^	*^	*
(<4c#	2.D#	(>4cc#	2a^< 2f#^<	.
4B#X	.	4b#X	.	<
4f#>	.	4ff#	4rfyy	.
*v	*v	*	*	*
*	*v	*v	*
=368	=368	=368
4a>)	4aa)	[
4ryy	4r	.
4ryy	4r	.
!!LO:LB:g=original
=369	=369	=369
*	*^	*
4C# 4CC#	(>4aa\ 4a	2ff# 2dd#	>
*ped	*	*	*
4BB#X 4BBB#X	4gg#\ 4g#\	.	]<
4D# 4DD#	4bb#X 4b#X	4ryy	.
*	*v	*v	*
=370	=370	=370
4F#/ 4FF#/	4ddd# 4dd#)	[
4A\ 4AA	4r	.
*Xped	*	*
4f#\ 4F#	4r	.
=371	=371	=371
*	*^	*
*ped	*	*	*
4D# 4DD#	(4bb#\ 4b#X\	2gg# 2ee#X	>
4C##X 4CC##X	4aa##X\ 4a##X\	.	]<
4E#X 4EE#X	4ccc##X 4cc##X	4ryy	.
*	*v	*v	*
=372	=372	=372
4G#\ 4GG#	4eee#X 4ee#X)	.
4B\ 4BB	4rdd	.
4g#>\ 4G#<	4rdd	[
*Xped	*	*
.	.	.
=373	=373	=373
*	*^	*
4G# 4GG#	(>4eee\ 4ee\	2ccc# 2aa#X	>
*ped	*	*	*
4F##X 4FF##X	4ddd#\ 4dd#\	.	]
4A#X\ 4AA#X\	4fff##X\ 4ff##X\	4ryy	<
*	*v	*v	*
=374	=374	=374
4c# 4C#	4aaa#X 4aa#X)	.
4e> 4E	4rdd	.
4f##X> 4F##X	4rdd	.
*clefG2	*	*
=375	=375	=375
4a# 4A#X	2.rdd	.
4cc# 4c#	.	.
4ee 4e	.	[[
=376	=376	=376
4ff##X 4f##X	4r	.
4r	4r	.
*clefF4	*	*
!	!	!LO:DY:rj
4C#\ 4CC#	(>4f## 4e 4A#X<	ff
*Xped	*	*
.	.	.
=377	=377	=377
!	!LO:TX:b:i:t=stretto.	!
2.BB#X 2.BBB#X	2.g# 2.d# 2.G#<	.
!!LO:PB:g=original
=378	=378	=378
2.AA 2.AAA	2.cc# 2.f# 2.c#	.
=379	=379	=379
2.GG# 2.GGG#	2.b# 2.f# 2.B#X	.
=380	=380	=380
2.EE 2.EEE	2.ff# 2.cc# 2.a 2.f#	.
=381	=381	=381
*	*^	*
(<4EE 4EEE	4cc#/	2.ff# 2.a 2.f#	<
4DD# 4DDD#)	4b#X/	.	.
4CC#'< 4CCC#'<	4dd#/	.	.
*	*v	*v	*
=382	=382	=382
4BBB#X 4BBBB#X	4ff#'> 4a'> 4f#'>)	.
4r	4r	[
4r	4r	.
=383	=383	=383
.	.	.
!LO:TX:B:a:t=1	!LO:TX:B:a:t=1	!
!LO:N:vis=1	!LO:N:vis=1	!
2.r	2.r	.
=384	=384	=384
*	*	*^
!	!LO:TX:b:i:t=ritenuto.	!	!
*ped	*	*	*
!	!	!LO:DY:rj	!
2.rF	[<2.a^<	fz	p
*	*	*v	*v
=385	=385	=385
2.rF	(>2.a]	.
.	.	.
=386	=386	=386
2.rD	(>[>2.A<)	.
=387	=387	=387
2.rD	2.A<]	.
*Xped	*	*
=388	=388	=388
2.rD	2.G#<	.
=389	=389	=389
2.rD	2F##X</	.
.	4G#<	.
=390	=390	=390
2.rF	2B#X</	.
.	4d#	.
!!LO:LB:g=original
=391	=391	=391
2.rF	2f#	.
.	4g#	.
=392	=392	=392
2.rF	4b/	.
.	4.a	.
.	8g#)	.
=393	=393	=393
*ped	*	*
!	!LO:TX:a:i:t=più lento.	!
(>4CC#	(>2.g#	p
4GG#	.	.
4C#	.	.
=394	=394	=394
4E	2e	.
4.G#	.	.
.	4f#	.
8GG#)	.	.
*Xped	*	*
.	.	.
=395	=395	=395
*ped	*	*
(>4CC#	2.g#	.
4GG#	.	.
4C#	.	.
=396	=396	=396
4E	2cc#	.
4.G#	.	.
.	4ee	.
8GG#)	.	.
*Xped	*	*
.	.	.
=397	=397	=397
*ped	*	*
(>4CC#	2.ee	.
4GG#	.	.
4C#	.	.
=398	=398	=398
4E	2dd#	.
4.G#	.	.
.	4cc#	.
8GG#)	.	.
*Xped	*	*
.	.	.
=399	=399	=399
*ped	*	*
(>4CC#	2.cc#	.
4GG#	.	.
4C#	.	.
=400	=400	=400
.	8qqb#X/L	.
.	8qqcc#/	.
.	8qqdd#/J	.
4E	2cc#	.
*Xped	*	*
4.G#	.	.
.	4bn	.
8GG#)	.	.
!!LO:LB:g=original
=401	=401	=401
*ped	*	*
(>4EE	2.b	.
4BB	.	.
4E	.	.
=402	=402	=402
4G#	2e	.
4.B	.	.
.	4f#	.
*Xped	*	*
8BB)	.	.
=403	=403	=403
*ped	*	*
(>4EE	2.g#	.
4BB	.	.
4E	.	.
=404	=404	=404
4G#	2b/	.
4.B	.	.
.	4a	.
8BB)	.	.
*Xped	*	*
.	.	.
=405	=405	=405
*ped	*	*
(>4EE	[<2.g#	.
4BB	.	.
4E	.	.
=406	=406	=406
4G#	2.g#_<	.
4.B	.	.
8BB)	.	.
*Xped	*	*
.	.	.
=407	=407	=407
*ped	*	*
(>4GG#	2.g#])	.
4D#/	.	.
4B\)	.	.
*Xped	*	*
=408	=408	=408
*ped	*	*
(>4CC#	(>4e#X	.
4C#	8f#L	.
.	8g#	.
4B)	8a	.
*Xped	*	*
.	8bJ	.
=409	=409	=409
*ped	*	*
(>4FF#	2.cc#	<
4C#	.	.
4F#\	.	.
!!LO:LB:g=original
=410	=410	=410
4A	2a	.
4.c#	.	.
.	4b/	.
8C#)	.	.
*Xped	*	*
.	.	.
=411	=411	=411
*ped	*	*
(>4FF#	2.cc#	.
4C#	.	.
4F#/	.	.
=412	=412	=412
4A	2ff#	.
4.c#	.	.
.	4aa	[[
8C#)	.	.
*Xped	*	*
.	.	.
=413	=413	=413
*ped	*	*
(>4FF#	2.aa	>
4Dn\	.	.
4A	.	.
=414	=414	=414
4dn	2gg#	.
4.a	.	.
.	4ff#	.
8A)	.	.
*Xped	*	*
.	.	.
=415	=415	=415
*ped	*	*
(>4FF#	2.ee	.
4Dn\	.	.
4A	.	.
=416	=416	=416
4dn	2ddn	.
4.a	.	.
.	4cc#	]
8A)	.	.
*Xped	*	*
.	.	.
=417	=417	=417
*ped	*	*
(>4FF#	2cc#	.
4D#X	.	.
*Xped	*	*
4G#)	4b#X	.
=418	=418	=418
*ped	*	*
(>4EE	2cc#	.
4C#	.	.
*Xped	*	*
[>4G#\	4dd#	.
=419	=419	=419
*^	*	*
4G#/]	4AA	2ee	.
4F##X/	4F##X	.	.
*ped	*	*	*
4ryy	4A/	4cc#	.
*v	*v	*	*
!!LO:LB:g=original
=420	=420	=420
4c#	2a	.
4.e	.	.
.	4f##X	.
*Xped	*	*
[>8E	.	.
=421	=421	=421
*^	*	*
(<4E]	4GG#	[<2.f##X	>
4ryy	4D#)	.	.
*ped	*	*	*
4ryy	4G#	.	.
*v	*v	*	*
=422	=422	=422
!	!LO:N:vis=8	!
4B#X	4f##X]	.
4.d#	4g#)	.
.	8r	]
*Xped	*	*
8D#)	(>8gg#	pp
=423	=423	=423
*ped	*	*
(>4GG#	8aaL	.
.	8gg#	.
4E	8ggn	.
.	8ff#	.
4A	8ee	.
.	8dd#J	.
=424	=424	=424
4c#	8cc#L	.
.	8ccn	.
4f##X	8b	.
.	8a	.
4E)	8.g#	.
*Xped	*	*
.	16f##XJk	.
=425	=425	=425
*ped	*	*
.	.	.
(>4GG#	4f##X	<
4D#	4g#)	[
4G#	4r	.
=426	=426	=426
4B#X	2.rdd	.
4.d#	.	.
8D#)	.	.
*Xped	*	*
.	.	.
!!LO:PB:g=original
=427	=427	=427
!	!LO:TX:b:i:t=sostenuto.	!
*ped	*	*
!	!LO:TX:t=P:problem:łuk od 2.d# do 4c# w takcie 434. Zaczyna się nad nutami, kończy pod. 	!
(<4GG#	2.d#	.
4D#	.	.
4B#X	.	.
*Xped	*	*
.	.	.
=428	=428	=428
4A#X	2c#	.
4D#	.	.
4B#X	4d#	.
=429	=429	=429
*ped	*	*
.	8qqB#X/L	<
.	8qqc#/	.
.	8qqd#/J	.
4GG#	2c#	.
4D#\	.	.
*Xped	*	*
4G#	4B#X	.
=430	=430	=430
*ped	*	*
4g#	[<2.d#	.
4G#	.	.
4D#	.	[[
=431	=431	=431
4GG#	2.d#]	.
4D#	.	.
4F#	.	.
*Xped	*	*
.	.	.
=432	=432	=432
4A	2d#	>
4G#	.	.
*ped	*	*
4GG#)	4d#	.
=433	=433	=433
*	*^	*
*	*	*	*^
!	!	!	!	!LO:DY:a
!	!	!	!	!LO:DY:rj
(>4CC#	&(2.g#	2d#	.	p
4GG#	.	.	.	.
4C#	.	4e	.	.
*	*	*	*v	*v
=434	=434	=434	=434
4E	2e	4c#	.
4.G#	.	4re	.
.	4f#	4d#	]
*Xped	*	*	*
8GG#)	.	.	.
=435	=435	=435	=435
*ped	*	*	*
(>4CC#	2.g#	2.e	<
4GG#	.	.	.
4C#	.	.	.
*	*v	*v	*
=436	=436	=436
4E	2cc# 2e	.
4.G#	.	.
.	4ee 4g#	.
*Xped	*	*
.	.	.
8GG#)	.	.
!!LO:LB:g=original
=437	=437	=437
*	*^	*
*ped	*	*	*
(>4CC#	2.ee	[<2.a	.
4AA	.	.	[
4E\	.	.	.
=438	=438	=438	=438
4A	2dd#	2.a_<	.
4.e	.	.	.
.	4cc#	.	.
*Xped	*	*	*
8E)	.	.	.
=439	=439	=439	=439
*ped	*	*	*
(>4C#\	2.cc#	2.a]	.
4e	.	.	.
4A)	.	.	.
*Xped	*	*	*
.	.	.	.
=440	=440	=440	=440
*ped	*	*	*
.	8qqb#X/L	.	>
.	8qqcc#/	.	.
.	8qqdd#/J	.	.
(>4D#	2cc#	2a	.
4f#	.	.	.
4B)	4bn	4a	.
*Xped	*	*	*
.	.	.	.
=441	=441	=441	=441
*ped	*	*	*
(>4EE	2.b	2.g#	.
4BB/	.	.	.
4E	.	.	]
=442	=442	=442	=442
4G#	2e	2e	.
4.B	.	.	.
.	4f#	4d#	.
*Xped	*	*	*
8BB)	.	.	.
*	*v	*v	*
=443	=443	=443
*	*^	*
*ped	*	*	*
(>4EE	2.g#	2.dn	>
4BB	.	.	.
[<4E/	.	.	.
*	*v	*v	*
=444	=444	=444
*	*^	*
*^	*	*	*
4B\	[2.E/]	2b	2dn	.
*Xped	*	*	*	*
4e\	.	.	.	.
4AA\	.	4a	4c#	.
=445	=445	=445	=445	=445
*ped	*	*	*	*
2.E])	(<4EE	[>2.g#	2.B	.
.	4BB	.	.	.
.	4E	.	.	.
*v	*v	*	*	*
*	*v	*v	*
=446	=446	=446
4G#	2.g#]&)	]
4.B	.	.
*Xped	*	*
8BB)	.	.
=447	=447	=447
*	*^	*
*ped	*	*	*
(>4GG#	(>2.d#X	2.B\	.
4D#	.	.	.
4B)	.	.	.
*Xped	*	*	*
.	.	.	.
!!LO:LB:g=original
=448	=448	=448	=448
*ped	*	*	*
(>4CC#	4e#X	2B	<
4C#	8f#'>L	.	.
.	8g#'>	.	.
4c#)	8a'>	4e# 4B	.
*Xped	*	*	*
.	8b'>J	.	.
=449	=449	=449	=449
*ped	*	*	*
.	[<q8B	.	.
(<4FF#	2.cc#: 2.f#:	4B:]	.
4C#	.	4A	.
4F#	.	4c#	.
=450	=450	=450	=450
4A	2a	2f#	.
4.c#	.	.	.
.	4b	4g#	.
*Xped	*	*	*
8C#)	.	.	.
=451	=451	=451	=451
*ped	*	*	*
(<4FF#	2.cc#	2.a	.
4C#	.	.	.
4F#	.	.	.
=452	=452	=452	=452
4A	2ff#	2a	.
4.c#	.	.	.
.	4aa	4cc#	[
*Xped	*	*	*
8C#)	.	.	.
=453	=453	=453	=453
*ped	*	*	*
(<4FF#	2.aa	[<2.ddn	.
4Dn	.	.	.
4A	.	.	.
=454	=454	=454	=454
4dn	2gg#	2.dd]	>
4.a	.	.	.
.	4ff#	.	.
8A)	.	.	.
*Xped	*	*	*
.	.	.	.
=455	=455	=455	=455
*ped	*	*	*
(</4FF#	2ff#	2.a	.
4Dn	.	.	.
4A	4ee	.	.
=456	=456	=456	=456
4dn	4ee	(<2f#	.
4.a	4ddn	.	.
*Xped	*	*	*
.	4cc#	4a	.
8A)	.	.	.
=457	=457	=457	=457
*ped	*	*	*
(>4FF#	2cc#	4a	.
4D#	.	4g#)	.
4G#)	4b#X	4rc	]
*Xped	*	*	*
.	.	.	.
!!LO:LB:g=original
=458	=458	=458	=458
*ped	*	*	*
(>4EE	2cc#	4re	.
4E	.	4re	.
4G#)	4dd#	(<4g#	>
*Xped	*	*	*
.	.	.	.
=459	=459	=459	=459
*ped	*	*	*
.	.	.	.
(<4AA	2ee	4g#	.
4E	.	4f##X)	]
4A	4cc#	4re	.
=460	=460	=460	=460
4c#	2a	4rc	.
4.e	.	4rA	.
.	4f##X	4c#	<
*Xped	*	*	*
[>8E)	.	.	.
=461	=461	=461	=461
*^	*	*	*
(>(<4E]	2GG#	4f##X	4c#	.
4D#)	.	2g#)	2B#X	.
4G#	4ryy	.	.	[
*v	*v	*	*	*
*	*v	*v	*
=462	=462	=462
4B#X	4r	.
4.d#	4r	.
.	8r	.
8D#)	(>8gg#	pp
.	.	.
=463	=463	=463
*ped	*	*
(>4GG#	8aaL	.
.	8gg#	.
4E	8ggn	.
.	8ff#	.
4A	8ee	.
.	8dd#J	.
=464	=464	=464
4c#	8cc#L	.
.	8ccn	.
4f##X	8b	.
.	8a	.
4E)	8.g#	.
*Xped	*	*
.	16f##XJk	.
=465	=465	=465
*ped	*	*
.	.	.
(>4GG#	(<4f##X	<
4D#	4g#))	[
4G#	4r	.
=466	=466	=466
4B#X	2.rdd	.
4.d#	.	.
8D#)	.	.
*Xped	*	*
.	.	.
!!LO:LB:g=original
=467	=467	=467
*ped	*	*
(>4GG#	(>2.d#	<
4D#	.	.
4B#X	.	.
*Xped	*	*
.	.	.
=468	=468	=468
4A#X	2c#	.
4D#	.	.
4B#X)	4d#	.
=469	=469	=469
.	8qqB#X/L	.
.	8qqc#/	.
.	8qqd#/J	.
(>4GG#	2c#	.
4D#	.	.
4G#	4B#X	.
=470	=470	=470
*ped	*	*
4F#	[<2.d#	.
4GG#	.	.
4GGG#	.	.
=471	=471	=471
4GG#	2.d#]	.
4F#	.	.
4G#	.	.
=472	=472	=472
4B#X	2e#X	.
4G#	.	.
4D#)	4f#	[[
*Xped	*	*
=473	=473	=473
*ped	*	*
.	.	.
(<4CC#	[>2.a#X [<2.e#X [<2.B	>
4C#	.	.
4G#	.	.
=474	=474	=474
4B	2.a#X] 2.e#X] 2.B]	.
4.c#	.	.
*Xped	*	*
8C#)	.	.
=475	=475	=475
*^	*	*
*ped	*	*	*
(>4CC#	4ryy	2.f# 2.A#X	.
4C#\	[<2C#/	.	.
4F#\	.	.	]
=476	=476	=476	=476
*	*	*^	*
4A#X	2C#]	2a	2.f#X	.
4.c#	.	.	.	.
.	4ryy	4b	.	.
8C#)	.	.	.	.
*Xped	*	*	*	*
.	.	.	.	.
*v	*v	*	*	*
!!LO:LB:g=original
=477	=477	=477	=477
*ped	*	*	*
.	8qB/	.	.
(>4CC#	2.cc#:	2f#:	.
4C#	.	.	.
4G#	.	4e#X	.
*Xped	*	*	*
.	.	.	.
=478	=478	=478	=478
.	8qe#X/	.	.
4B	2.g#	2d#	.
4c#	.	.	.
4C#)	.	[<4c#\	.
*	*v	*v	*
=479	=479	=479
*ped	*	*
(<4FF#	2.a#X 2.f# 2.c#]	.
4A#X	.	.
*Xped	*	*
4F#)	.	.
=480	=480	=480
.	8qcc#/	.
*ped	*	*
(>4BB/	2.b: 2.f#: 2.d#:)	.
4d#	.	.
*Xped	*	*
4G#)	.	.
=481	=481	=481
*ped	*	*
(<4CC#	[>2.a#X [<2.e#X [<2.B	>
4C#	.	.
4G#	.	.
=482	=482	=482
4B	2.a#X] 2.e#X] 2.B]	.
4.c#	.	.
*Xped	*	*
8C#)	.	.
=483	=483	=483
*^	*	*
*ped	*	*	*
(>4FF#/	4ryy	[>2.f# 2.A#X	]
4C#\	[<2C#/	.	.
4F#\	.	.	.
=484	=484	=484	=484
*	*	*^	*
4A#X\	2C#/]	2a#X	2.f#]	<
4.c#]	.	.	.	.
.	4ryy	4b#X	.	.
*Xped	*	*	*	*
8C#)	.	.	.	.
*v	*v	*	*	*
*	*v	*v	*
=485	=485	=485
*ped	*	*
(<4FF#	2.cc# 2.a#X	.
4F#	.	.
4A#X	.	.
=486	=486	=486
4B#X	2.dd# 2.a#X	.
4d#	.	.
*Xped	*	*
4F#)	.	[[
!!LO:PB:g=original
=487	=487	=487
*ped	*	*
(<4EE#X	(>2.ee#X 2.a#X	.
4BB#X	.	.
4E#X\	.	.
*Xped	*	*
=488	=488	=488
4G##X	2.b#X 2.f##X	.
4B#X	.	.
4BB#X)	.	[[
*k[]	*k[]	*
=||489	=||489	=||489
*k[b-]	*k[b-]	*
*ped	*	*
(<4GG/	[>2.a [<2.e [<2.B-	>
4C/	.	.
4G\	.	.
=490	=490	=490
4B-	2.a] 2.e] 2.B-]	.
4.c	.	.
*Xped	*	*
8C/)	.	.
=491	=491	=491
*^	*	*
*ped	*	*	*
(>4FF/	4ryy	2.f 2.A	]
4C/	[<2C\	.	.
4F\	.	.	.
=492	=492	=492	=492
*	*	*^	*
4A/	2C\]	2a	2.f	.
4.c/	.	.	.	.
*Xped	*	*	*	*
.	4ryy	4b-	.	.
8C/)	.	.	.	.
*v	*v	*	*	*
=493	=493	=493	=493
.	8qB-/	.	.
*ped	*	*	*
(>4CC	2.cc:	2f:	.
4C	.	.	.
4G	.	4e	.
*Xped	*	*	*
.	.	.	.
=494	=494	=494	=494
.	8qe/	.	.
4B-	2.g	2d	.
4c	.	.	.
4C/)	.	[<4c	.
*	*v	*v	*
=495	=495	=495
*ped	*	*
(>4FF	2.a 2.f 2.c]	.
4A	.	.
*Xped	*	*
4F)	.	.
!!LO:LB:g=original
=496	=496	=496
.	8qcc/:	.
*ped	*	*
(>4BB-	2.b-: 2.f: 2.d:	.
4d	.	.
*Xped	*	*
4G)	.	.
=497	=497	=497
*ped	*	*
(<4CC	[>2.a: [<2.e: [<2.B-:	>
4C/	.	.
4G	.	.
=498	=498	=498
4B-	2.a] 2.e] 2.B-]	.
4c	.	.
*Xped	*	*
4C/)	.	.
=||499	=||499	=||499
*k[f#c#g#d#]	*k[f#c#g#d#]	*
(>4BB#X 4BBB#X	2f# 2d# 2A<)	.
4BB#	.	.
4D#\	4r	]
=500	=500	=500
!	!LO:TX:i:t=dim _:problem:dynamics with extention lines	!
!	!	!LO:HP:i:t=dim
4F#	2.rdd	>
4A	.	.
4BB#X/	.	.
=501	=501	=501
4D#	2.rdd	.
4F#	.	.
4A	.	.
=502	=502	=502
4B#X	2.rdd	.
4d#	.	.
4F#	.	.
=503	=503	=503
4A	2.rdd	.
4B#X	.	.
4d#	.	.
*clefG2	*	*
=504	=504	=504
4f#	2.rdd	.
4a	.	.
4B#X/	.	.
=505	=505	=505
4d#	2.rdd	.
4f#	.	.
4a	.	]
!!LO:LB:g=original
=506	=506	=506
4b#X	2.rdd	.
4dd#	.	.
4f#)	.	.
=507	=507	=507
2.rdd	(>[>2.ff#	>
*clefF4	*	*
=508	=508	=508
2.rF	2ff#]	.
.	4A</)	.
=509	=509	=509
2.rGG	(>2F##X</	.
.	4G#</	]
=510	=510	=510
2.rF	2B#X	.
.	4d#	.
=511	=511	=511
2.rF	2f#	.
.	4g#	.
=512	=512	=512
2.rF	4b/	.
.	4.a	.
.	8g#	.
=513	=513	=513
*ped	*	*
(<4CC#	2.g#	.
4GG#	.	.
4C#	.	.
=514	=514	=514
4E	2e	<
4.G#	.	.
.	4f#	.
*Xped	*	*
8GG#)	.	.
=515	=515	=515
*ped	*	*
(<4CC#	[<2.g#	.
4GG#	.	.
4C#	.	.
=516	=516	=516
*	*^	*
4E	2cc#	2.g#]	.
4.G#	.	.	.
.	4ee	.	.
*Xped	*	*	*
8GG#)	.	.	.
=517	=517	=517	=517
*ped	*	*	*
.	.	.	.
(<4CC#	2.ee	[<2.a	.
4AA	.	.	.
4E\	.	.	[
!!LO:LB:g=original
=518	=518	=518	=518
4A	2dd#	2.a]	.
4.e	.	.	.
.	4cc#	.	.
*Xped	*	*	*
8E)	.	.	.
=519	=519	=519	=519
*ped	*	*	*
(>4C#/	2.cc#	2.a	.
4e	.	.	.
4A)	.	.	.
*Xped	*	*	*
.	.	.	.
=520	=520	=520	=520
.	8qqb#X/L	.	>
.	8qqcc#/	.	.
.	8qqdd#/J	.	.
*ped	*	*	*
(>4D#	2cc#	2a	.
4f#	.	.	.
*Xped	*	*	*
4B)	4b#y	4a	.
=521	=521	=521	=521
*ped	*	*	*
(<4EE	2.b	2.g#	.
4BB	.	.	.
4E\	.	.	]
=522	=522	=522	=522
4G#	2e	2e	.
4.B	.	.	.
.	4f#	4d#	>
*Xped	*	*	*
8BB)	.	.	.
=523	=523	=523	=523
*ped	*	*	*
(>4EE	2.g#	2.dn	.
4BB	.	.	.
4E)	.	.	.
*Xped	*	*	*
.	.	.	.
=524	=524	=524	=524
*ped	*	*	*
(>4EE	2b	2.c#	.
4AA	.	.	.
4E)	4a	.	]
*Xped	*	*	*
.	.	.	.
=525	=525	=525	=525
*ped	*	*	*
(<4EE	[>2.g#	4B	.
4BB	.	4rc	.
4E	.	4rc	.
*	*v	*v	*
=526	=526	=526
4G#	2.g#]	.
4.B	.	.
*Xped	*	*
8BB)	.	.
=527	=527	=527
*	*^	*
*ped	*	*	*
(>4GG#	2.d#	2.B	.
4D#	.	.	.
*Xped	*	*	*
4B)	.	.	.
!!LO:LB:g=original
=528	=528	=528	=528
*ped	*	*	*
(<4CC#	4e#X	2B	<
4C#	8f#'>L	.	.
.	8g#'>	.	.
4c#)	8a'>	4e# 4B	.
*Xped	*	*	*
.	8b'>J	.	[[
=529	=529	=529	=529
.	(<8qB/	.	.
*ped	*	*	*
(<4FF#/	2.cc#: 2.f#:	4B:)	.
4C#/	.	4A	.
4F#	.	4c#	.
*	*v	*v	*
=530	=530	=530
4A	2a/ 2f#/	.
4.c#	.	.
.	4b/ 4g#/	.
*Xped	*	*
8C#/)	.	.
=531	=531	=531
*ped	*	*
(<4FF#/	2.cc# 2.a	.
4C#/	.	.
4F#\	.	.
=532	=532	=532
4A\	2ff# 2a	.
4.c#\	.	.
.	4aa 4cc#	.
8C#)	.	.
*Xped	*	*
.	.	.
=533	=533	=533
*	*^	*
*ped	*	*	*
(<4FF#	2.aa	[<2.ddn	>
4Dn	.	.	.
4A	.	.	.
=534	=534	=534	=534
4dn	2gg#	2nX.dd]	.
4.a	.	.	.
.	4ff#	.	.
*Xped	*	*	*
8A)	.	.	.
=535	=535	=535	=535
*ped	*	*	*
(<4FF#	2.ff#	[<2.a	.
4Dn	.	.	.
4A	.	.	.
=536	=536	=536	=536
4dn	2ee	2.a]	.
4.a	.	.	.
.	4ddn	.	.
*Xped	*	*	*
8A)	.	.	.
=537	=537	=537	=537
*ped	*	*	*
(<4FF#	[>2.ddn	2.a	.
4Dn	.	.	.
4A	.	.	]]
!!LO:LB:g=original
=538	=538	=538	=538
*Xped	*	*	*
4Dn	2.ddnX]	2g#	>
4dn	.	.	.
4D)	.	4f#	.
=539	=539	=539	=539
*ped	*	*	*
(<4DDn	[>2.a	2.f#	.
4Dn	.	.	.
4A	.	.	.
=540	=540	=540	=540
4cn	2.a]	2e	.
4d#	.	.	.
*Xped	*	*	*
4D#)	.	4dn	.
*	*v	*v	*
=541	=541	=541
*ped	*	*
(<4GGn/	[>\2.b [<\2.gn	.
4Dn	.	]
4Gny	.	.
=542	=542	=542
4B	2.b\_> 2.g\])	.
4.dn	.	.
8Dn)	.	.
=543	=543	=543
*	*^	*
(<4GGn	(>2.b_>	2.fn/	.
4Dn	.	.	.
4Gn	.	.	.
=544	=544	=544	=544
.	8qqe/L	.	.
.	8qqfn/	.	.
.	8qqgn/J	.	.
4B	2.b]	2fn	.
4dn	.	.	.
*Xped	*	*	*
4GGn)	.	4e\	.
*	*v	*v	*
=545	=545	=545
*	*	*^
!	!	!	!LO:HP:b=2
(>4CCn	[>2.ccn [<2.e	.	<
4GGn	.	]	.
4Cn	.	.	.
=546	=546	=546	=546
4Gn	2.ccnX_> 2.e_<	.	.
4.cn	.	.	.
8e	.	.	.
=547	=547	=547	=547
2.e)	2.ccnX_> 2.e_<	.	[
*	*	*v	*v
=548	=548	=548
2.rF	2.ccnX] 2.e_<	.
!!LO:PB:g=original
=549	=549	=549
*	*^	*
!	!LO:TX:i:t=smorz _:dur=11q:ext=ud:problem:text with extension lines	!	!
(<4FFn	[>2.a	2.e]	.
4Cn	.	.	.
4Fn	.	.	.
=550	=550	=550	=550
4A	2.a_>	[<2.fn	.
4.cn	.	.	.
8Cn)	.	.	.
=551	=551	=551	=551
(<4FFn	2.a_>	2.fnX]	.
4Cn	.	.	.
4Fn	.	.	.
=552	=552	=552	=552
.	8qqe/L	.	.
.	8qqfn/	.	.
.	8qqgn/J	.	.
4A	2.a]	2fn	.
4cn	.	.	.
4Cn)	.	4e	>
=553	=553	=553	=553
(<4BBB	[>2.b	4e	.
!	!LO:TX:b:i:t=poco a poco:dur=5q:ext2=s:problem:text with extension lines	!	!
4FF#X	.	[<2d#X	]
4BB	.	.	.
=554	=554	=554	=554
4F#	2.b]	2.d#]	.
4.B	.	.	.
8d#	.	.	.
*	*v	*v	*
=555	=555	=555
!	!	!
4d#^>	[>2.f# [<2.d#	.
!	!LO:TX:i:t=cresc._:problem:dynamics with extension lines	!
!	!	!LO:HP:i:t=cresc.
4B	.	<
4F#	.	.
=556	=556	=556
4BB	2.f#] 2.d#])	.
4FF#	.	.
4BB)	.	.
=557	=557	=557
*ped	*	*
(>4BBB	(>[>2.g# [<2.f# [<2.B	.
4EE	.	.
4BB	.	.
!!LO:LB:g=original
=558	=558	=558
4E	2.g#] 2.f#] 2.B]	.
4.B	.	.
8e	.	.
*Xped	*	*
.	.	.
=559	=559	=559
*ped	*	*
4e^<	[>2.g# 2.e	.
4B	.	.
4E	.	.
=560	=560	=560
*	*^	*
4BB	2.g#]	2e	.
4EE	.	.	.
*Xped	*	*	*
4BB)	.	4d#\	.
*	*v	*v	*
=561	=561	=561
*ped	*	*
(>4BBB	[>2.cc# [<2.g# [<2.c#	.
4EE#X	.	.
4BB	.	.
=562	=562	=562
4E#X	2.cc#] 2.g#] 2.c#]	.
4.B	.	.
8e#X	.	.
*Xped	*	*
.	.	.
=563	=563	=563
*ped	*	*
4e#X^<	[>2.g# [<2.c#	.
4B	.	.
4E#X	.	.
=564	=564	=564
4BB	2.g#] 2.c#]	.
4EE#X	.	.
4BB)	.	.
*Xped	*	*
.	.	.
=565	=565	=565
*ped	*	*
(>4BBB	[>2.a [<2.g# [<2.c#	.
4FF#	.	.
4BB	.	.
=566	=566	=566
4F#	2.a] 2.g#] 2.c#]	.
4.B	.	.
*Xped	*	*
8f#	.	.
!!LO:LB:g=original
=567	=567	=567
*ped	*	*
4f#^<	[>2.a [<2.f#	.
4B	.	.
4F#	.	.
=568	=568	=568
4BB	2a] 2f#]	.
4FF#	.	.
*Xped	*	*
4BB)	4a#X 4e	.
=569	=569	=569
*ped	*	*
(>4BBB	[>2.dd#/ [>/2.a#X [</2.d#	.
4FF##X	.	.
4BB	.	.
=570	=570	=570
4F##X	2.dd#_>/ 2.a#/] 2.d#/]	.
4.B	.	.
*Xped	*	*
8a##X	.	.
=571	=571	=571
*	*^	*
*	*	*^	*
*ped	*	*	*	*
4a##X^<	2.dd#_>	2.a#X	[<2.d#\	.
4B	.	.	.	.
4F##X	.	.	.	.
=572	=572	=572	=572	=572
4BB	2.dd#]	2a#X\	2.d#\]	.
4FF##X	.	.	.	.
*Xped	*	*	*	*
4BB)	.	4b\	.	.
*	*v	*v	*v	*
=573	=573	=573
*ped	*	*
(>4BBB	2.dd# [>2.b 2.d#	.
4GG#	.	.
4BB	.	.
=574	=574	=574
4G#	[>2.ee 2.b] [<2.e	.
4.B	.	.
*Xped	*	*
8g#	.	.
=575	=575	=575
*ped	*	*
4g#^>	2.ee] 2.b 2.e]	.
4B	.	.
4G#	.	.
*Xped	*	*
.	.	.
!!LO:LB:g=original
=576	=576	=576
*ped	*	*
4BB	2.ee#X 2.ddn 2.b 2.e#X	.
4GG#	.	.
*Xped	*	*
4BB)	.	[
=577	=577	=577
*	*	*^
*ped	*	*	*
(>4BBB	[>2.ff#/ [>2.ccn/ [<2.a/ [<2.d#/	ff>	.
4Cn	.	.	.
4BBB	.	.	.
=578	=578	=578	=578
4Cn	2.ff#] 2.ccn] 2.a] 2.d#])	.	p
4BBB	.	.	.
4C	.	.	.
*Xped	*	*	*
.	.	.	.
*	*	*v	*v
=579	=579	=579
*ped	*	*
4BB/	8r	.
.	(>8AL	.
4cn\	8cn	.
.	8d#	.
4BB/	8gn	.
.	8f#J	]]
=580	=580	=580
4cn\	8eL	.
!	!LO:TX:i:t=cresc._:problem:dynamics with extension lines	!
!	!	!LO:HP:i:t=cresc.
.	8d#	<
4BB/	8f#	.
.	8a	.
4c\	8ddn	.
.	8ccnJ	.
=581	=581	=581
!	!LO:TX:i:t=ed _:dur=3q:ext=ud:problem:text with extension lines	!
4BB/	8bL	.
.	8a	.
4cn\	8ccn	.
.	8dd#X	.
4BB/	8ggn	.
.	8ff#J	.
=582	=582	=582
!	!LO:TX:i:t=accel. _:dur=3q:ext=ud:problem:text with extension lines	!
4cn\	8eeL	.
.	8dd#	.
4BB/	8ff#	.
.	8aa	.
4c\	8dddn	.
*Xped	*	*
.	8cccnJ	.
!!LO:LB:g=original
=583	=583	=583
*	*8va	*
*ped	*	*
4BB/	8bbL	.
.	8aa	.
4F#\	8cccn	.
.	8ddd#X	.
4BB/	8gggn	.
.	8fff#J	.
=584	=584	=584
4F#\	8eeeL	.
.	8ddd#	.
4BB/	8fff#	.
.	8aaa	.
4F#\	8ddddn	.
*Xped	*	*
.	8ccccnJ	[
=585	=585	=585
!	!LO:TX:i:t=decresc. _:problem:dynamics with extention lines	!
!	!LO:HP:i:t=decres	!
4BB/	8bbbL	>
.	8aaa	.
4A\	8ccccn	.
.	8ggg#	.
4BB/	8gggn	.
.	8fff#J	.
=586	=586	=586
4A\	8aaaL	.
!	!LO:TX:i:t=ed _:dur=5e:ext=ud:problem:text with extension lines	!
.	8fffn	.
4BB/	8eee	.
.	8ddd#X	.
4A\	8fff	.
.	8dddnJ	.
=587	=587	=587
!	!LO:TX:i:t=accel. _:dur=24q:ext=ud:problem:text with extension lines	!
4BB/	8ccc#/L<	.
.	8cccn	.
4A\	8ddd#X	.
.	8bb	.
4BB/	8aa#X	.
.	8aanJ	.
*	*X8va	*
=588	=588	=588
!	!LO:TX:a:i:t=loco.	!
4A\	8cccnL	.
.	8gg#	.
4BB/	8ggn	.
.	8ff#	.
4A\	8aa	.
*Xped	*	*
.	8ffnJ	.
!!LO:PB:g=original
=589	=589	=589
*ped	*	*
4BB/	8eeL	.
.	8dd#	.
4A\ 4E	8ff#	.
.	8ddn	.
4BB/	8cc#	.
.	8ccnJ	.
=590	=590	=590
4A\ 4E	8dd#XL>\	.
.	8b	.
4BB/	8a#X	.
.	8an	.
4A\ 4E	8ccn	.
.	8g#J	.
=591	=591	=591
4BB/	8gnL	.
.	8f#	.
4A\ 4E	8a	.
.	8fn	.
[<4BB/	8e	.
.	8d#J	.
=592	=592	=592
*^	*	*
2A 2E	4BB]	8f#L	.
.	.	8dn	.
.	2BB	8cn	.
.	.	8B	.
4A 4E	.	8d	.
*Xped	*	*	*
.	.	8cJ	.
*v	*v	*	*
=593	=593	=593
*ped	*	*
4A 4D#X 4BB)	8BL	.
.	8cn	.
4r	8B	.
.	8c	.
4r	8B	.
.	8cJ	.
=594	=594	=594
2.rF	8BL	.
.	8cn	.
.	8B	.
.	8c	.
.	8B	.
.	8cJ	]
!!LO:LB:g=original
=595	=595	=595
!	!LO:TX:i:t=cresc. _:problem:dynamics with extention lines	!
!	!	!LO:HP:i:t=cresc.
(>8BBL	8BL	<
8Cn	8cn	.
8BB	8B	.
8C	8c	.
8BB	8B	.
8CJ	8cJ	.
=596	=596	=596
8BBL	8BL	.
8Cn	8cn	.
8BB	8B	.
8C	8c	.
8BB	8B	.
8CJ	8cJ	.
*Xped	*	*
.	.	.
=597	=597	=597
*ped	*	*
8AA#X^L	8BL	.
8Cn	8cn	.
8BB	8B	.
8C	8c	.
8BB	8B	.
*Xped	*	*
8CJ	8cJ	.
=598	=598	=598
*ped	*	*
8AAn^L	8BL	.
8Cn	8cn	.
8BB	8B	.
8C	8c	.
8BB	8B	.
*Xped	*	*
8CJ	8cJ	.
=599	=599	=599
*ped	*	*
8GG#^L	8BL	.
8C#X	8c#X	.
8BB	8B	.
8C#	8c#	.
8BB	8B	.
*Xped	*	*
8C#J	8c#J	.
=600	=600	=600
*ped	*	*
8FF#^L	8BL	.
8C#	8c#	.
8BB	8B	.
8C#	8c#	.
8BB	8B	.
*Xped	*	*
8C#J)	8c#J)	[
!!LO:LB:g=original
=601	=601	=601
*^	*	*
!	!	!LO:TX:b:B:t=a tempo.	!
!	!	!LO:TX:a:B:t=Tempo 1|o.	!
!	!	!	!LO:DY:rj
8BBL	[<2.EE	(>2.b [<2.e 2.B	f
8C#	.	.	.
8BB	.	.	.
8C#	.	.	.
8BB	.	.	.
8C#J	.	.	.
=602	=602	=602	=602
8BBL	2.EE_<	2.cc# 2.e_< 2.c#	.
8C#	.	.	.
8BB	.	.	.
8C#	.	.	.
8BB	.	.	.
8C#J	.	.	.
=603	=603	=603	=603
8BBL	2.EE_<	2.g# 2.e_< 2.G#	.
8C#	.	.	.
8BB	.	.	.
8C#	.	.	.
8BB	.	.	.
8C#J	.	.	.
=604	=604	=604	=604
8BBL	2.EE]	2.cc# 2.e] 2.c#	.
8C#	.	.	.
8BB	.	.	.
8C#	.	.	.
8BB	.	.	.
8C#J	.	.	.
=605	=605	=605	=605
*	*	*^	*
8BBL	2.DD#	2.b 2.a 2.f#)	(>8BL	.
8C#	.	.	8c#	.
8BB	.	.	8B	.
8C#	.	.	8c#	.
8BB	.	.	8B	.
8C#J	.	.	8c#J	.
*v	*v	*	*	*
*	*v	*v	*
=606	=606	=606
*ped	*	*
8EEL^></	8E<L	.
8C#	8c#<	.
8BB	8B<	.
8C#	8c#<	.
8BB	8B<	.
8C#J	8c#<J	.
*Xped	*	*
.	.	.
=607	=607	=607
*ped	*	*
8CC#L</	8C#<L	.
8C#	8c#<	.
8BB	8B<	.
8C#	8c#<	.
8BB	8B<	.
*Xped	*	*
8C#J	8c#<J)	.
!!LO:LB:g=original
=608	=608	=608
*ped	*	*
8DD#L</	8D#<L	.
8C#	8c#<	.
8BB	8B<	.
8C#	8c#<	.
8BB	8B<	.
*Xped	*	*
8C#J	8c#<J	.
=609	=609	=609
*ped	*	*
!	!	!LO:DY:rj
4BBB/	4B<	fz
4r	4r	.
4r	4r	.
=610	=610	=610
2.B 2.F# 2.BB	(>2.a 2.d#	>
=611	=611	=611
*Xped	*	*
4B 4E	4g# 4e)	.
8r	8r	.
8A 8E	(>8f# 8B	.
4G# 4E	4e 4B	]
=612	=612	=612
2.B 2.E	2.g# 2.e	.
=613	=613	=613
2.F# 2.C#	2.f# 2.e 2.A#X<	.
=614	=614	=614
4FF#'>\ 4FFF#'>	4f#) 4F#<	.
4r	4r	.
4r	4r	.
=615	=615	=615
4F#^< 4FF#^<	4ff#^> 4f#^>	.
4r	4r	.
4r	4r	.
=616	=616	=616
4f#^> 4F#^>	4fff#^> 4ff#^>	.
4r	4r	.
4r	4r	.
!!LO:LB:g=original
=617	=617	=617
*ped	*	*
4BB'</ 4BBB'</	4r	.
4rBB	4B< 4G#<	.
4G#	4e'< 4B'<	.
=618	=618	=618
4B>	4g#'> 4e'>	.
4e>	4b'> 4g#'>	.
4g#>	4ee'> 4b'>	.
=619	=619	=619
2.b>	2.gg#^> 2.ee^>	.
*Xped	*	*
.	.	.
=620	=620	=620
2.ee> 2.a#X>	2.ccc#^> 2.ff##^>	.
=621	=621	=621
4dd#> 4b>	4bb'> 4ff#'>	.
4b> 4e#X>	4gg#'> 4ddn'>	.
4a> 4f#>	4aa'> 4cc#'>	.
=622	=622	=622
4a> 4d#X>	4ff#'> 4cc#'>	.
4g#> 4G#>	4gg#'> 4b#X'>	.
4g#> 4c#>	4ee'> 4cc#'>	.
=623	=623	=623
2.e> 2.c#>	2.cc#^> 2.g#^>	.
=624	=624	=624
2.f#> 2.B>	(>2.dd#^> 2.b^>	.
=625	=625	=625
4B 4E	4ee'> 4g#'>)	.
4r	4r	.
4r	4r	.
!!LO:PB:g=original
=626	=626	=626
*ped	*	*
[<2.BB	(>[<2.B^<	<
=627	=627	=627
2.BB]	2.B]	.
=628	=628	=628
4EE\	4G#<	.
4.BB/	4.e	.
8B\	8b/	.
=629	=629	=629
[>2.B	[>2.b	[[
=630	=630	=630
*Xped	*	*
*^	*^	*
2.B_>	2A	2.b_>	2a	.
.	4G#	.	4g#	.
=631	=631	=631	=631	=631
2.B]	2.G#	2.b]	2.g#	<
=632	=632	=632	=632	=632
4c#	2F#	4cc#	2f#	.
4d#	.	4dd#	.	.
4e	4G#	4ee)	4g#	[
*	*	*v	*v	*
=633	=633	=633	=633
8BBL	[<2.EE	(>2.b 2.e 2.B	.
!	!	!LO:TX:i:t=sempre	!
8C#	.	.	.
8BB	.	.	.
8C#	.	.	f
8BB	.	.	.
8C#J	.	.	.
=634	=634	=634	=634
8BBL	2.EE_	2.cc# 2.e 2.c#	.
8C#	.	.	.
8BB	.	.	.
8C#	.	.	.
8BB	.	.	.
8C#J	.	.	.
!!LO:LB:g=original
=635	=635	=635	=635
8BBL	2.EE_<	2.g# 2.e 2.G#	.
8C#	.	.	.
8BB	.	.	.
8C#	.	.	.
8BB	.	.	.
8C#J	.	.	.
=636	=636	=636	=636
.	.	(<8qd#/	.
8BBL	2.EE]	4dd#:) 4d#	.
8C#	.	.	.
8BB	.	4.cc# 4.c#	.
8C#	.	.	.
8BB	.	.	.
8C#J	.	8b 8B	.
=637	=637	=637	=637
*ped	*	*	*
(<4.D#	8DD#L	4b 4a 4f# 4B)	.
.	8EE	.	.
.	8DD#	8rf	.
4ryy	8EE	(>8E<L	.
.	8DD#	8D#<	.
8ryy	8EEJ	8E<J	.
*v	*v	*	*
=638	=638	=638
8DD#L	8D#<L	.
8EE	8E<	.
8DD#	8D#<	.
8EE	8E<	.
8DD#	8D#<	.
8EEJ	8E<J	.
=639	=639	=639
8DD#L	8D#<L	.
8EE	8E<	.
8DD#	8D#<	.
8EE	8E<	.
8DD#	8D#<	.
8EEJ	8E<J	.
=640	=640	=640
8DD#L	8D#<L	.
8EE	8E<	.
8DD#	8D#<	.
8EE	8E<	.
8DD#	8D#<	.
8EEJ	8E<J	.
!!LO:LB:g=original
=641	=641	=641
*ped	*	*
4DDn'<)	4Dn<'>)	fz
4rEE	4rA<	.
4rEE	4rA<	.
*clefG2	*	*
=642	=642	=642
2.a 2.e 2.dn	(>2.ccc# 2.ee 2.cc#	>
=643	=643	=643
4g# 4e 4dn	4bb 4ee 4b	.
8r	8r	.
8f# 8d	8aa 8ee 8a	]
4e 4d	4gg# 4ee 4g#	.
=644	=644	=644
*ped	*	*
2.g# 2.e 2.dn	2.bb 2.ee 2.b)	.
*clefF4	*	*
=645	=645	=645
2.dn^> 2.B^> 2.G#^> 2.Dn^>	2.ee 2.b 2.e	.
=646	=646	=646
4GG#^< 4GGG#^<	4g#^> 4G#<^>	.
4rAA	4rg	.
4rAA	4rg	.
=647	=647	=647
4G#^< 4GG#^<	4gg#^> 4g#^>	.
4r	4r	.
4r	4r	.
=648	=648	=648
4g#^> 4G#^>	4ggg#^> 4gg#^>	.
4r	4r	.
4r	4r	.
=649	=649	=649
4DDn 4DDDn	4r	.
4rGG	4B< 4G#<	.
4G#	4e 4B	.
=650	=650	=650
4B>	4g#'> 4e'>	.
4e>	4b'> 4g#'>	.
4g#>	4ee'> 4b'>	.
!!LO:LB:g=original
=651	=651	=651
2.b>	2.gg#^> 2.ee^>	.
*Xped	*	*
.	.	.
=652	=652	=652
2.ddn> 2.a>	2.ccc#^> 2.ff#^>	.
=653	=653	=653
4dd#> 4g#>	4bb'> 4ffn'>	.
4dd#> 4b>	4gg#'> 4ee'>	.
4cc#> 4a>	4aa'> 4ee'>	.
=654	=654	=654
4a> 4dn>	4ff#'> 4ddn'>	.
4g#> 4e>	4ee 4b	.
4e> 4A>	4cc# 4a	.
=655	=655	=655
2.dn 2.A 2.Dn	2.a^> 2.f#^>	.
=656	=656	=656
!	!LO:S:s=1:note:problem:note-level slur	!
2.dn 2.G# 2.E	(>2.b^> [<2.e^>	.
=657	=657	=657
!	!LO:S:s=1:note:problem:note-level slur	!
4A 4E 4AA	4cc#'<) 4a'< 4e'<] 4c#'	.
4r	4r	.
*ped	*	*
4r	4r	.
=658	=658	=658
(<[>2.E	(>[<2.e^<	.
=659	=659	=659
2.E]	2.e]	<
=660	=660	=660
4AA/	4c#	.
4.E	4.a	.
8e	8ee\	.
=661	=661	=661
2.e	2.ee	.
.	.	[
!!LO:LB:g=original
=662	=662	=662
2d#	2dd#	.
*Xped	*	*
.	.	.
4c#	4cc#	.
=663	=663	=663
2.c#	2.cc#	.
=664	=664	=664
2.c#	2.cc#	.
=665	=665	=665
.	8qcc#/	fz
4e 4A)	4f#'<)	.
4r	4r	.
4r	4r	.
=666	=666	=666
2.r	(>8b#XL	<
.	8cc#	.
.	8dd#	.
.	8cc#	.
.	8gg#	.
.	8ff#J	.
*clefG2	*	*
=667	=667	=667
4f#^< 4e^< 4A^<	8gg#L	.
.	8ff#	.
4r	8ee#X	.
.	8ff#	.
4r	8ddd#	.
.	8ccc#J	.
=668	=668	=668
*	*8va	*
4g#^< 4e^< 4B^<	8aa#XL	.
.	8bb	.
4r	8ddd#	.
.	8eeeJ	.
4r	4eeee	[
*ped	*	*
=669	=669	=669
*^	*	*
(>4b^>	2.e 2.c#	8dddd#L	.
.	.	8bbb#X	.
4a	.	8dddd#	.
.	.	8cccc#	.
4cc#	.	8aaa	.
.	.	8eeeJ	.
*	*	*X8va	*
*v	*v	*	*
!!LO:PB:g=original
=670	=670	=670
!	!LO:TX:a:i:t=loco.	!
4ee)	8ddd#L	>
.	8ccc#	.
4r	8aa	.
.	8ee	.
4r	8dd#	.
.	8cc#J	.
*clefF4	*	*
=671	=671	=671
2.rF	8aL	.
.	8e	.
.	8d#	.
.	8c#	.
*Xped	*	*
.	8A<	.
.	8E<J)	]
=672	=672	=672
*ped	*	*
4AAA	2.rdd	.
4r	.	.
4r	.	.
=673	=673	=673
(<8qqAA/L	(>8qqc#/L	>
8qqE/J	8qqa/J	.
2.e	2.ee	.
=674	=674	=674
*Xped	*	*
2d#	2dd#	.
4c#	4cc#	.
=675	=675	=675
2.g#	2.gg#	.
=676	=676	=676
4f#	4ff#	.
4e	4ee	.
4B#X	4b#X	.
=677	=677	=677
2.e	2.ee	.
=678	=678	=678
2d#	2dd#	.
4c#	4cc#	.
=679	=679	=679
2.c#	2.cc#	]
!!LO:LB:g=original
=680	=680	=680
2.c#)	2.cc#)	.
=681	=681	=681
.	8qcc#/	.
4e 4A#X	4f#	fz
4r	4r	.
4r	4r	.
=682	=682	=682
2.rF	(>8b#XL	<
.	8cc#	.
.	8dd#	.
.	8cc#	.
.	8gg#	.
.	8ff#J	.
*clefG2	*	*
=683	=683	=683
4f#^> 4e^> 4A#X^>	8gg#L	.
.	8ff#	.
4r	8ee#X	.
.	8ff#	.
4r	8ddd#	.
.	8ccc#J	.
=684	=684	=684
*	*8va	*
4g#^> 4e^> 4B^>	8aa#XL	.
.	8bb	.
4r	8ddd#X	.
.	8eeeJ	.
4r	4eeee)	[[
=685	=685	=685
*^	*	*
*ped	*	*	*
(4b	2.e 2.c#	(>8dddd#L	>
*	*	*	*^
!	!	!	!	!LO:HP:b=2
.	.	8bbb#X	.	<
4a#X	.	8dddd#	.	.
.	.	8cccc#	.	.
4cc#	.	8aaa#X	.	.
.	.	8eeeJ	.	.
*	*	*X8va	*	*
*v	*v	*	*	*
=686	=686	=686	=686
!	!LO:TX:a:i:t=loco.	!	!
4ee)	8ddd#L	.	[
.	8ccc#	.	.
4r	8aa#X	.	.
.	8ee	.	.
4r	8dd#	.	.
.	8cc#J	]	.
*clefF4	*	*	*
*	*	*v	*v
!!LO:LB:g=original
=687	=687	=687
2.r	8a#XL	.
.	8e	.
.	8d#	.
.	8c#	.
.	8A#X<	.
.	8E<J)	.
=688	=688	=688
*ped	*	*
4FFF#'<	2.rdd	.
4r	.	.
4r	.	.
=689	=689	=689
.	(>8qA#X</	.
.	(<8qqA#X</L	.
.	8qqe/	.
.	[>8qqa#/J)	.
2FF#	2.ee [<2.a#]	>
4C#	.	.
=690	=690	=690
*	*^	*
*Xped	*	*	*
2.F#	2dd#	2.a#X]	.
.	4cc#	.	]]
=691	=691	=691	=691
.	8qa#X/	.	.
*^	*	*	*
2.e:	2.F#:	2.gg#:	2.a#y:\	>
=692	=692	=692	=692	=692
2d#	2.F#	2ff#	2.a#X\	.
!	!	!LO:S:s=1:note:problem:note-level slur	!	!
4c#	.	4ee)	.	.
=693	=693	=693	=693	=693
2.g#:	2.F#:	(>2.ee	2.a#X\	.
=694	=694	=694	=694	=694
2f#	2.F#	2dd#	2.a#	.
4e	.	4cc#	.	.
=695	=695	=695	=695	=695
2.e	2.F#	2.cc#	2.a#X	]]
*v	*v	*	*	*
=696	=696	=696	=696
2.A#X 2.E	2.cc#	2.f#	<[
*	*v	*v	*
=697	=697	=697
4B'> 4D#'>	4ff#'> 4b'> 4f#'>)	.
4r	4r	.
4r	4r	.
!!LO:LB:g=original
=698	=698	=698
(>2.f#\	(>8ee#XL	<
.	8ff#	.
.	8gg#	.
.	8ff#	.
.	8ee#	.
.	8ff#J	.
=699	=699	=699
*^	*	*
2.A#X	[<2.F# [<2.E	8ff##XL	.
.	.	8gg#	.
.	.	8aa#X	.
.	.	8gg#	.
.	.	8ff##	.
.	.	8gg#J	.
=700	=700	=700	=700
2d#	2.F#] 2.E]	8gg##XL	.
.	.	8aa#X	.
.	.	8bb	.
.	.	8aa#	.
4c#	.	8gg##	.
.	.	8aa#J	[
=701	=701	=701	=701
*	*	*8va	*
2.B	4F# 4D#	8bbL	.
.	.	8ggg#	.
.	4rD	8fff#	.
.	.	8eee#X	.
.	4rD	8eeen	.
.	.	8ddd#J	.
*	*	*X8va	*
*v	*v	*	*
=702	=702	=702
!	!LO:TX:a:i:t=loco.	!
2.g#\	8ccc#L	>
.	8bb	.
.	8aa#X	.
.	8gg#	.
.	8ff#	.
.	8ee#XJ	.
=703	=703	=703
!LO:TX:a:t=P:problem: łuk od 2.e do 8f# w takcie 704	!	!
2.e: [>2.A#X: [<2.F#: 2.C#:)	8eenL>	.
.	8dd#	.
.	8cc#	.
.	8b	.
.	8a#X	.
.	8g#J	.
=704	=704	=704
2.A#X] 2.F#]	8f#\	.
.	8f##XL	.
.	8a#X	.
.	8g#	.
.	8f#X	.
.	8eJ	.
!!LO:LB:g=original
=705	=705	=705
4F# 4BB	4d#)	.
4r	4r	]
4r	4r	.
=706	=706	=706
2.rF	(>8ddd#L	>
.	8ccc#	.
.	8bb	.
.	8aa#X	.
.	8gg#	.
.	8ff#J	.
=707	=707	=707
(>2.B: 2.E#X: 2.GG#:	8ee#XL	.
.	8dd#	.
.	8cc#	.
.	8b	.
.	8a#X	.
.	8g#J	.
=708	=708	=708
4c#\)	8f#L	.
.	8e#X	.
4rD	8d#	.
.	8c#	.
4rD	8B<	.
.	8G#<J)	]
=709	=709	=709
2.D# [<2.FF#	(>[>2.F#<^>	.
=710	=710	=710
2.D#\ 2.FF#_<	2.F#<_>	.
=711	=711	=711
*	*^	*
2.FF#_<	2.c# 2.A#X	2.F#<_> 2.E<	.
=712	=712	=712	=712
*^	*	*	*
2D#\	2.FF#]	2d# 2B	2.F#<_>	.
.	.	8qf#/	.	.
!	!	!LO:S:s=1:note:problem:note-level slur	!	!
4C#\	.	4e 4A#X	.	.
*v	*v	*	*	*
*	*v	*v	*
=713	=713	=713
4BB\	4d# 4B 4F#<])	.
4r	4r	.
4r	4r	.
!!LO:PB:g=original
=714	=714	=714
(>[>2.F#\	(>8e#XL	<
.	8f#	.
.	8g#	.
.	8f#	.
.	8e#	.
.	8f#J	.
=715	=715	=715
*^	*	*
2.F#]	[<2.EE	8f##XL	.
.	.	8g#	.
.	.	8a#X	.
.	.	8g#	.
.	.	8f##	.
.	.	8g#J	[
=716	=716	=716	=716
[>2.F#^>	2.EE]	8g##XL	.
.	.	8a#X	.
.	.	8b	.
.	.	8a#	.
.	.	8g##	.
.	.	8a#J	.
=717	=717	=717	=717
2.F#]	2.BB:\ 2.DD#:\	8bL	>
.	.	8gg#	.
.	.	8ff#	.
.	.	8ee#X	.
.	.	8een	.
.	.	8dd#J	.
*v	*v	*	*
=718	=718	=718
2.F##X\	8cc#L	.
.	8b	.
.	8a#X	.
.	8g#	.
.	8f#	.
.	8e#XJ	.
=719	=719	=719
*^	*	*
*	*^	*	*
*	*	*	*	*
4G#:	[>2.AA#:	4CC#:)	8enL	.
.	.	.	8d#	.
2ryy	.	2ryy	8c#	.
.	.	.	8B	.
.	.	.	8A#X<	]
.	.	.	8G#<J	.
*v	*v	*	*	*
*v	*v	*	*
!!LO:LB:g=original
=720	=720	=720
!LO:TX:t=P:ligatura zaczyna się u góry, a kończy na dole:problem	!	!
2.E\ 2.AA#X]	8F#<L	.
.	8F##X<	.
.	8A#X<	.
.	8G#<	.
.	8F#X<	.
.	8E<J	.
=721	=721	=721
*ped	*	*
4AAn\ 4BBB#X	4D#<'>)	.
4rEE	4r	.
4rEE	4r	.
*clefG2	*	*
=722	=722	=722
*	*8va	*
!	!	!LO:DY:rj
(<8ddd#L	(>8dddd#L	ff
8ff#	8fff#	.
8ff##X	8fff##X	.
8gg#	8ggg#	.
8aa	8aaa	.
8dd#J	8ddd#J	.
=723	=723	=723
8eeL	8eeeL	.
8ee#X	8eee#X	.
8ff#y	8fff#	.
8b#X	8bb#X	.
8cc#	8ccc#	.
8cc##XJ	8ccc##XJ	.
*	*X8va	*
=724	=724	=724
!	!LO:TX:i:a:t=loco.	!
8dd#\L>	8ddd#L	.
8f#	8ff#	.
8f##X	8ff##X	.
8g#	8gg#	.
8a	8aa	.
8d#J	8dd#J	.
=725	=725	=725
8eL	8eeL	.
8e#X	8ee#X	.
8f#y	8ff#	.
8B#X	8b#X	.
8c#	8cc#	.
8c##XJ	8cc##XJ	.
*Xped	*	*
.	.	.
*clefF4	*	*
!!LO:LB:g=original
=726	=726	=726
8d#L	8dd#L	.
8F#	8f#	.
8F##X	8f##X	.
8G#	8g#	.
8A	8a	.
8BB#XJ	8B#XJ	.
=727	=727	=727
8C#L	8c#L	.
8C##X	8c##X	.
8D#	8d#	.
8FF#	8F#<	.
8FF##X	8F##X<	.
8GG#J	8G#<J	.
=728	=728	=728
8AAL	8A<L	.
8GG#	8G#<	.
8FF##X	8F##X<	.
8GG#	8G#<	.
8BB	8B<	.
8AAJ	8A<J	.
=729	=729	=729
4GG#'<)	4G#<'>)	.
4rBB	4r	.
4rBB	4r	.
*ped	*	*
=730	=730	=730
!	!	!LO:DY:rj
4GG#\ 4GGG#	4g# 4f# 4B#X< 4G#<	fz
4rBB	4r	.
4rBB	4r	.
=731	=731	=731
.	.	.
!LO:TX:a:B:t=1	!LO:TX:B:a:t=1	!
!LO:N:vis=1	!LO:N:vis=1	!
2.r	2.r	.
=732	=732	=732
[>2.d# [>2.G# [<2.D# [<2.GG#	[>2.ff# [>2.b#X [<2.g# [<2.f#	>
=733	=733	=733
2d#] 2G#] 2D#] 2GG#]	2ff#_> 2b#] 2g#] 2f#]	]
8r	8r	.
!	!LO:TX:a:t=P:rozpoczęty, ale niedokończony luk:problem	!
8B#X 8G# 8D#	(>8ff# 8g# 8f#	.
*Xped	*	*
.	.	.
!!LO:LB:g=original
=734	=734	=734
!	!LO:S:s=1:note:problem:note-level slur	!
2c# 2G# 2E	2ee/) 2cc#/ 2g#/ 2e/	.
4B#X 4G# 4F#	4dd#/ 4g#/ 4d#/	.
=735	=735	=735
2.B#X 2.G# 2.F#	2.dd#/ 2.g#/ 2.d#/	.
=736	=736	=736
2.B#X 2.G# 2.F#	2.dd#/ 2.g#/ 2.d#/	.
=737	=737	=737
2GG# 2GGG#	2dd# 2g# 2f#	.
4C# 4CC#	4ee 4g# 4e	.
=738	=738	=738
2.G# 2.GG#	2.dd# 2.b 2.g# 2.d#	.
=739	=739	=739
*^	*	*
*	*^	*	*
!	!	!	!	!LO:DY:rj
2B 2G#	2.D#	2GG#\	[<2.d#	p
4A#X 4F#	.	4DD#\	.	.
*	*v	*v	*	*
=740	=740	=740	=740
2.B 2.G#	2.D# 2.GG#	2.d#]	.
*v	*v	*	*
=741	=741	=741
!	!	!LO:DY:rj
2.E 2.EE	(>2.cc# 2.b 2.g# 2.c#	f
=742	=742	=742
2.CC# 2.CCC#	2.gg# 2.ee 2.b 2.g#	.
=743	=743	=743
2.EE 2.EEE	2.cc# 2.b 2.g# 2.c#	.
=744	=744	=744
2.FF# 2.FFF#	2.dd# 2.a#X 2.f# 2.e	.
=745	=745	=745
2BB 2BBB	2b 2d#)	.
4r	4r	.
!!LO:LB:g=original
=746	=746	=746
2.BB 2.EE	(>[2.B< 2.G#< 2.E<	p
=747	=747	=747
2.BB 2.FF#	2.B<] 2.F#< 2.D#<	>
=748	=748	=748
*^	*	*
2.G# 2.E	2.BB 2.EE	4e	.
.	.	4d#	.
.	.	4c#	]
*v	*v	*	*
=749	=749	=749
*ped	*	*
[<2.BB [<2.BBB	2.B< 2.G#< 2.E<	.
=750	=750	=750
2.BB] 2.BBB]	2.d# 2.B< 2.F#<)	.
=751	=751	=751
4d#^>	4dd#^> 4ddd#^>	.
4r	4r	.
4r	4r	.
=752	=752	=752
!	!	!LO:DY:rj
2.DD#	2.d#^< 2.D#<^<	f
*Xped	*	*
.	.	.
=753	=753	=753
2.DD#\ [2.FFF##X	2.d# [>2.A#X< 2.D#<	<
=754	=754	=754
2.EE 2.FFF##X]	2.e 2.A#X<] 2.E<	.
=755	=755	=755
2.CC##X\ [<2.GGG#	2.c##X [<2.B 2.C##X<	.
=756	=756	=756
2.DD# 2.GGG#]	2.d# 2.B] 2.D#<	.
=757	=757	=757
!	!LO:TX:a:i:t=ten.	!
!	!LO:TX:a:t=P:problem:brak rozpoczęcia łuku	!
!	!LO:TX:a:t=P:problem:ligatura do 2.d# kończy się skierowana w górę	!
!	!LO:S:s=3:note:problem:note-level slur	!
!	!LO:TX:a:t=P:problem:brak początku ligatury do 2.D# 	!
2.AA#X [<2.DD# 2.AAA#X	[<2.d# [<2.c# (<2.F##X< N[>2.D#<	.
.	.	[
!!LO:PB:g=original
=758	=758	=758
!	!LO:S:s=3:note:problem:note-level slur	!
2.BB 2.DD#] 2.BBB	2.d#_< 2.c#_< 2.G#) 2.D#<N]	.
=759	=759	=759
2.GG##X 2.DD# 2.GGG##X	2.d#_< 2.c#_< 2.F#< 2.D#<	.
=760	=760	=760
*^	*	*
*	*	*^	*
4BB\ 4BBB\	2DD#	2.d#] 2.c#] 2.D#<]	4G#</	.
4AA#X\ 4AAA#X\	.	.	4F##X</	.
4FF##X\ 4FFF##X\	4ryy	.	4A#</	.
*	*	*v	*v	*
*v	*v	*	*
=761	=761	=761
4DD# 4DDD#	4d#'> 4D#<'>	.
4rFF	4r	.
4rFF	4r	.
=762||	=762||	=762||
*	*^	*
*k[b-e-a-d-]	*k[b-e-a-d-]	*	*
!LO:TX:t=P:arpeggio od E-:problem	!	!	!
2.E-:	(>2.dd-: 2.g:	2.f:	>
*	*v	*v	*
=763	=763	=763
4e- 4A-	4cc/ 4a-	.
8r	8r	.
8d- 8A-	8b- 8e-	.
4c 4A-	4a- 4e-	]
=764	=764	=764
2.e- 2.A-	2.cc\ 2.a-\)	.
=765	=765	=765
*^	*	*
!	!	!LO:TX:a:i:t=ten.	!LO:HP:b=2
[>\2.B-	2.F	(>[>2.b- [>2.a- [<2.dn	<
=766	=766	=766	=766
2.B-_>	4En	2.b-_> 2.a-_> 2.dnX_<	.
.	4F	.	.
.	4F#X	.	.
=767	=767	=767	=767
!	!	!	!LO:HP:b=2
2.B-_>	4G	2.b-_> 2.a-_> 2.dn_<	[
.	4Fn	.	.
.	4C	.	.
!!LO:LB:g=original
=768	=768	=768	=768
!	!	!	!LO:HP:b=2
!	!	!LO:S:s=1:note:problem:note-level slur	!
!	!	!LO:TX:t=P:brak zakończenia ligatury do 2.b-:problem	!
!	!	!LO:TX:t=P:ligatura do 2.a- kończy się skierowana w dół:problem	!
2.B-]	4BB-	2.b-]) 2.a-] 2.dnX]	>
.	4GG	.	.
.	4FF	.	]]
*v	*v	*	*
=769	=769	=769
*	*ped	*
4EE-'</	4r	.
4r	(>4e-'> 4c'>	p
4c>\	4a-'> 4e-'>	.
=770	=770	=770
4e->	4cc 4a-	.
4a->	4ee- 4cc	.
4cc>	4aa- 4ee-	.
=771	=771	=771
2.ee->	2.ccc 2.aa-	.
*	*Xped	*
.	.	.
=772	=772	=772
2.aa->	2.fff 2.ccc-X	.
=773	=773	=773
4gg> 4ee->	4eee-'> 4bb-'>	.
4ee-> 4an>	4ccc'> 4gg-X'>	.
4dd-> 4b->	4ddd-'> 4ff'>	.
=774	=774	=774
4dd-> 4gn>	4bb-'> 4ff-X'>	.
4cc> 4a->	4ccc'> 4ee-'>	.
4cc> 4f>	4aa-'> 4ee-'>	.
=775	=775	=775
2.a-> 2.d->	2.ff 2.dd-	.
=776	=776	=776
2.g> 2.e->	2.ee- 2.b-	.
=777	=777	=777
4e-> 4A-	4cc'> 4a-'>)	.
4r	4r	.
4r	4r	.
!!LO:LB:g=original
=778	=778	=778
*ped	*	*
[>2.E-	(>[<2.e-^<	.
=779	=779	=779
2.E-]	2.e-]	<
=780	=780	=780
4AA-/	4c	.
4.E-	4.a-	.
8e-	8ee-\	.
=781	=781	=781
.	.	[[
!	!LO:TX:i:t=cresc _:problem:dynamics with extention lines	!
!	!	!LO:HP:i:t=cresc:ext=ud
2.e-	2.ee-	<
*Xped	*	*
=782	=782	=782
2d-	2dd-	.
4c	4cc	.
=783	=783	=783
2.c	2.cc	.
=784	=784	=784
2.c	2.cc)	[[
=785	=785	=785
*^	*	*
!	!	!	!LO:DY:rj
2.C	[<2.EEn	(>2.cc [>2.g 2.c	f
=786	=786	=786	=786
!	!	!LO:S:s=2:note:problem:note-level slur	!
2.D-	2.EEnX]	2.dd- (>2.g] 2.d-	.
=787	=787	=787	=787
!	!	!LO:S:s=2:note:problem:note-level slur	!
2.BBn	[<2.FF	2.bn [>2.a-) 2.Bn	.
=788	=788	=788	=788
2.C	2.FF]	2.cc 2.a-] 2.c	.
=789	=789	=789	=789
*	*	*^	*
!	!	!LO:TX:a:i:t=ten.	!	!
2.G\ 2.GG	[>/2.C	[2.cc/ [2.b-/ [<2.c/	2.en	.
=790	=790	=790	=790	=790
2.A-\ 2.AA-	2.C_>	2.cc_/ 2.b-/_ 2.c/_<	2.f	.
!!LO:LB:g=original
=791	=791	=791	=791	=791
!LO:TX:t=P:brak ligatury do 2.C:problem	!	!LO:TX:t=P:brak ligatur do 2.cc, 2.b-, 2.c:problem	!	!
2.C_/	2.F#X/ 2.FF#X/	2.cc_/ 2.b-/_ 2.c/_<	2.d#X	<
=792	=792	=792	=792	=792
!	!	!LO:S:s=1:note:problem:note-level slur	!	!
4A-\ 4AA-	2.C]	2.cc]) 2.b-] 2.c]	4f	.
4G/ 4GG/	.	.	4en	.
4En/ 4EEn/	.	.	4g	.
.	.	.	.	[
*v	*v	*	*	*
*	*v	*v	*
=793	=793	=793
4C'< 4CC	4cc'> 4c	fz
4r	4r	.
4r	4r	.
=794	=794	=794
2.dn 2.C	(>2.b- 2.en	>
=795	=795	=795
4c 4F	4an 4f	.
8r	8r	.
8B- 8F	8g 8c	]
4Any 4F	4f 4c	.
=796	=796	=796
2.c 2.F	2.an 2.f)	.
=797	=797	=797
N[<2.Bn 2.Dn	[<2.g [<2.f	.
=798||	=798||	=798||
*k[f#c#g#d#]	*k[f#c#g#d#]	*
[>2.Dn [<2.DDn	2.gnX] 2.fnX] 2.BN]	.
=799	=799	=799
2.DnX] 2.DDnX]	2.g#X 2.e#X 2.B	<
=800	=800	=800
(2.DDnX] 2.DDDnX	2.a 2.f# 2.B#X	.
=801	=801	=801
*ped	*	*
4CC#'< 4CCC#'<)	4a#X 4f# 4c#	ff
4rGG	4c#< 4A#X<	[
4A	4f#'> 4c#'>	.
=802	=802	=802
4c#>	4a#X'> 4f#'>	.
4f#>	4cc#'> 4a#'>	.
4a#y>\	4ff#'>/ 4cc#'>	.
!!LO:LB:g=original
=803	=803	=803
2.cc#>	2.aa#X^>/ 2.ff#>/	.
*Xped	*	*
.	.	./
=804	=804	=804
2.ff#> 2.ccn>	2.ddd#^> 2.aan^>	.
=805	=805	=805
4ee#X> 4cc#>	4ccc#'> 4gg#'>	.
4cc#> 4f##X>	4aa#X'> 4een'>	.
4b> 4g#>	4bb'> 4dd#'>	.
=806	=806	=806
4b>\ 4e#X>	4gg#'>/ 4dd#'>	.
4a#X>\ 4A#X>	4aa#X'>/ 4cc##X'>	.
4a#>\ 4d#>	4ff#>/ 4dd#	.
=807	=807	=807
2.d#> 2.f#>	2.dd#^> 2.a#X^>	<
=808	=808	=808
2.g#> 2.c#>	(>2.ee#X^> 2.cc#^>	.
=809	=809	=809
*ped	*	*
4a> 4B#X>	4ff#'> 4dd#X)'>	.
4r	4r	[
4r	4r	.
=810	=810	=810
[<2.AA	[>2.A<	>
=811	=811	=811
2AA]	2A<]	.
*Xped	*	*
(<8GG#L	(>8G#<L	.
8GGnJ	8Gn<J	]]
=812	=812	=812
8FF#L	8F#<L	.
8FFn	8Fn<	.
8EE	8E<	.
8DD#	8D#<	.
8DDn	8Dn<	.
8CC#J	8C#<J	.
*ped	*	*
=813	=813	=813
4BBB#X\)	4BB#X<'>)	.
4rBBB	4r	.
4rBBB	4r	.
!!LO:PB:g=original
=814	=814	=814
(>2d#	(>2dd#	>
*Xped	*	*
4E#X	4e#X	.
=815	=815	=815
2F#	2f#	.
4G#	4g#	.
=816	=816	=816
2B	2b/	.
4A)	4a)	]
=817	=817	=817
*	*	*^
!	!	!LO:DY:rj	!
(>4CC#	2.g# 2.e#X 2.B	fz	p
!	!	!	!LO:HP:b=2
8BBB#XL	.	.	<
8CC#	.	.	.
8BB#X	.	.	.
8C#J	.	.	.
*	*	*v	*v
=818	=818	=818
8DnL	2.a 2.e# 2.B	.
8C#	.	.
8BB#X	.	.
8C#yy	.	.
8dn	.	.
8c#J	.	[[
=819	=819	=819
*	*^	*
*	*^	*	*
*ped	*	*	*	*
4C#'<)	(>4g#	2.e#	&(<4B	[<
4r	8AL/&)	.	4ryy	.
.	8c#	.	.	.
4r	8a	.	4ryy	.
.	8g#J	.	.	.
*	*	*v	*v	*
*	*v	*v	*
=820	=820	=820
!	!	!LO:HP:b=2
[>2.f# [2.c# 2.A	8f#L	.
*Xped	*	*
.	8f##X	.
.	8g#	.
.	8a	.
.	8a#X	.
.	8bJ	.
=821	=821	=821
*^	*	*
(4f#]	2c#] 2G#	8b#XL/	.
.	.	8cc#	.
4e)	.	8f##X	.
.	.	8g#	.
*ped	*	*	*
4C#'>\	4ryy	8ee	.
.	.	8dd#J	.
*v	*v	*	*
!!LO:LB:g=original
=822	=822	=822
4e 4c# 4G#	8cc#L	.
.	8dd#	.
4r	8ee	.
.	8ee#X	.
4r	8ff#	.
.	8ff##XJ	.
=823	=823	=823
*^	*	*
(>4e	2A 2F#	8gg#L	.
.	.	8aa	.
*ped	*	*	*
4dn)	.	8bb	.
.	.	8aa	.
4FF#	4ryy	8fff#	.
.	.	8eeeJ	[
*v	*v	*	*
=824	=824	=824
*	*8va	*
4dn'> 4A'> 4F#'>	8dddnL	.
.	8eee	.
4r	8fff#	.
.	8gggn	.
*Xped	*	*
4r	8ggg#X	.
.	8aaaJ	.
=825	=825	=825
*ped	*	*
(>2.c# 2.E#X 2.GG#	8fff##XL	>
.	8ggg#	.
.	8aaa#X	.
.	8ggg#	.
.	8eeee#X	.
.	8dddd#J	.
=826	=826	=826
2.G#	8cccc#L	.
.	8bbb#X	.
.	8aaa#X	.
.	8ggg#	.
.	8fff#	.
.	8eee#XJ	.
*	*X8va	*
=827	=827	=827
!	!LO:TX:a:i:t=loco.	!
2.e#X	8ddd#L	.
.	8ccc#	.
.	8bb#X	.
.	8aa#X	.
.	8gg#	.
*Xped	*	*
.	8ff##XJ	.
!!LO:LB:g=original
=828	=828	=828
2.f#)	8ff#XL	.
.	8ee#X	.
.	8dd#	.
.	8cc#	.
.	8b#X	.
.	8a#XJ	]
=829	=829	=829
*ped	*	*
8qGG#/	.	.
(>2.e#X\ [>2.B#X [>2.G# [2.F#	8g#/L<	<
.	8a#X	.
.	8b#X	.
.	8cc#	.
.	8dd#	.
.	8ee#XJ	.
*Xped	*	*
=830	=830	=830
2.d#) 2.B#X] 2.G#] 2.F#]	8ff#L	.
.	8gg#	.
.	8bb#X	.
.	8aa#X	.
.	8gg#	.
.	8ff#J	.
.	.	[
=831	=831	=831
(4d#: 4G#: 4C#:	8ee#XL	>
.	8gg#	.
4e#X	8eee#X	.
.	8bb#X	.
4G#	8ddd#	.
.	8ccc#J	.
=832	=832	=832
4c#)	8gg#/L	.
.	8ee#X	.
4r	8dd#	.
.	8cc#	.
4r	8g#	.
.	8c#J)	]
=833	=833	=833
!	!LO:S:s=1:note:problem:note-level slur	!
!	!	!LO:HP:b=2
(>4DD#^<	(>2.a#X [<2.f##X [<2.c#	<
8CC##XL	.	.
8DD#	.	.
8C##X	.	.
8D#J	.	.
!!LO:LB:g=original
=834	=834	=834
8EL	2.b 2.f##_< 2.c#_<	.
8D#	.	.
8C##X	.	.
8D#	.	.
8e	.	.
8d#J	.	.
=835	=835	=835
*	*^	*
*	*^	*	*
*ped	*	*	*	*
4D#'>)	4a#X	2.f##X]	4c#]	[<
4r	8BL/	.	4ryy	.
.	8d#	.	.	.
4r	8b	.	4ryy	.
.	8a#XJ	.	.	.
*	*	*v	*v	*
*	*v	*v	*
=836	=836	=836
*Xped	*	*
[>2.g# 2.d# 2.B	8g#L	.
.	8a	.
.	8a#X	.
.	8b	.
.	8b#X	.
.	8cc#J	.
=837	=837	=837
*^	*	*
*ped	*	*	*
2d#^<\] 2A#X^<	(>4g#/]	8cc##XL\	.
.	.	8dd#	.
.	4f#/)	8a#X	.
.	.	8dd#	.
4D#	4ryy	8aa#X	.
.	.	8gg#J	.
*v	*v	*	*
=838	=838	=838
4f#'> 4d#'> 4A#X'>	8ff#L	.
.	8gg#	.
4r	8aa#X	.
.	8bb	.
*Xped	*	*
4r	8bb#X	.
.	8ccc#J	.
=839	=839	=839
*	*8va	*
*^	*	*
(>4f#	2.B^< 2.G#^<	8ccc##XL	.
.	.	8ddd#	.
*ped	*	*	*
4e)	.	8eee	.
.	.	8bb	.
4GG#/	.	8ggg#	.
.	.	8fff#J	.
*v	*v	*	*
!!LO:LB:g=original
=840	=840	=840
4e 4B 4E	8eeeL	.
.	8fff#	.
4r	8ggg#	.
.	8ggg##X	.
4r	8aaa#X	.
.	8bbbJ	[[
=841	=841	=841
*k[b-e-a-]	*k[b-e-a-]	*
*ped	*	*
2.e-: 2.G: 2.BB-:	8aaanL	>
.	8bbb-	.
.	8cccc	.
.	8bbb-	.
.	8eeee-	.
.	8ccccJ	.
=842	=842	=842
2.B-	8bbb-L	.
.	8cccc	.
.	8bbb-	.
.	8aaan	.
.	8aaa-X	.
.	8gggJ	.
=843	=843	=843
2.g	8fffL	.
.	8eee-	.
.	8ded	.
.	8ccc	.
.	8bb-	.
.	8aanJ	.
*	*X8va	*
=844	=844	=844
!	!LO:TX:a:i:t=loco.	!
2.a-	8aa-XL	.
.	8gg	.
.	8ff	.
.	8ee-	.
.	8dd	.
.	8ccJ	.
=845	=845	=845
8qBB-/	.	.
*ped	*	*
2.g\ [>2.d [>2.B- [2.A-	8b-L	]
.	8cc	<
.	8dd	.
.	8ee-	.
.	8ff	.
.	8ggJ	.
!!LO:PB:g=original
=846	=846	=846
!LO:TX:t=P:problem:ligatura do 2.B- kończy się skierowana w dół	!	!
2.f 2.dn] 2.B-] 2.A-]	8aa-L	.
*Xped	*	*
.	8bb-	.
.	8ddd	.
.	8ccc	.
.	8bb-	.
.	8aa-J	.
=847	=847	=847
(4f:\ 4B-:\ 4E-:\	8ggL	.
.	8bb-	[
4g\	8ggg	.
.	8ddd	>
4B-\	8fff	.
.	8eee-J	.
=848	=848	=848
4e-\)	8bb-L	.
.	8gg	.
4r	8ee-	.
.	8b-J	.
4r	4e-)	]
=849||	=849||	=849||
*k[f#c#g#d#]	*k[f#c#g#d#]	*
*	*^	*
*ped	*	*	*
(>4BB/	(>4.ff#	8ff#L	.
.	.	8a	.
4d#	.	8b	.
.	4.gg#/	8gg#yy	.
4B	.	8a	.
*Xped	*	*	*
.	.	8bJ	.
=850	=850	=850	=850
*^	*	*	*
4E\	2.E/	4.ee	8eeL	.
.	.	.	8g#	.
4e\	.	.	8b	.
.	.	4.ff#	8ff#	.
4c#\	.	.	8g#	.
.	.	.	8a#XJ	.
=851	=851	=851	=851	=851
4F#\	2.F#/	4.dd#	8dd#L	.
.	.	.	8f#	.
4d#\	.	.	8a#X	.
.	.	4.ee	8ee	.
4B\	.	.	8f#	.
.	.	.	8g#J	.
*v	*v	*	*	*
!!LO:LB:g=original
=852	=852	=852	=852
*ped	*	*	*
4FF#'<	4.cc#	8cc#L	.
.	.	8e	.
4A#X\	.	8g#	.
.	4.dd#	8dd#	.
4F#\)	.	8e	.
*Xped	*	*	*
.	.	8f#J	.
=853	=853	=853	=853
*ped	*	*	*
(4BB/	4.cc#	8cc#L	<
.	.	8e	.
4B	.	8f#	.
.	4.b	8b	.
4F#	.	8d#	.
.	.	8f#J	.
*	*v	*v	*
=854	=854	=854
4d#	8bL	.
.	8dd#	.
4B	8ff#	.
.	8bb	.
*clefG2	*	*
4f#	8bbb	.
.	8ggg#J	[
=855	=855	=855
4dd#^>)	8fff#L	>
.	8ccc#	.
4r	8bb	.
.	8gg#	.
4r	8ff#	.
.	8cc#J	.
=856	=856	=856
2.rdd	8bL	.
.	8g#	.
.	8f#	.
.	8c#J	.
*Xped	*	*
.	4B^>)	.
.	.	]]
*clefF4	*	*
=857	=857	=857
*	*^	*
*	*	*^	*
*ped	*	*	*	*
(>4BB'<	8bb	4.ff#/	8ff#\L	.
.	8ryy	.	8a\	.
4d#	2ryy	.	8b\	.
.	.	4.gg#/	8gg#\	.
4B	.	.	8a\	.
*Xped	*	*	*	*
.	.	.	8b\J	.
*	*	*v	*v	*
!!LO:LB:g=original
=858	=858	=858	=858
*^	*	*	*
4E\	2.E/	(4.ee	8eeL	.
.	.	.	8g#	.
4e\	.	.	8b	.
.	.	4.ff#	8ff#	.
4c#\	.	.	8g#	.
.	.	.	8a#XJ	.
=859	=859	=859	=859	=859
*	*	*	*^	*
4F#\	2.F#/	4ff#/	4.dd#/	8dd#\L	.
.	.	.	.	8f#\	.
4d#\	.	2ryy	.	8a#X\	.
.	.	.	4.ee/	8ee\	.
4B\	.	.	.	8f#\	.
.	.	.	.	8g#\J	.
*	*	*v	*v	*	*
*v	*v	*	*	*
*	*v	*v	*
=860	=860	=860
*	*^	*
*ped	*	*	*
4FF#'</	4.cc#	8cc#L	.
.	.	8e	.
4A#X\	.	8g#	.
.	4.dd#	8dd#	.
4F#\	.	8e	.
*Xped	*	*	*
.	.	8f#J	.
=861	=861	=861	=861
4BB/	4.cc#	8cc#L	.
.	.	8e	.
4B\	.	8f#	.
.	4.b	8b	.
4F#\	.	8d#	.
.	.	8f#J	.
*	*v	*v	*
=862	=862	=862
4d#	8bL	<
.	8dd#	.
4B	8ff#	.
.	8bb	.
*clefG2	*	*
4f#	8bbb	.
.	8ggg#J	.
.	.	[
=863	=863	=863
4ff#^>)	8fff#L	.
.	8ccc#	.
4r	8bb	.
.	8gg#	.
4r	8ff#	.
.	8cc#J	.
*clefF4	*	*
!!LO:LB:g=original
=864	=864	=864
2.r	8bL	>
.	8g#	.
.	8f#	.
.	8c#J	.
*Xped	*	*
.	4B^>)	]
=865	=865	=865
*	*^	*
*	*	*^	*
*ped	*	*	*	*
(>4BB'<	(8bb	4.ff#/	8ff#\L	.
.	8ryy	.	8a\	.
4d#	2ryy	.	8b\	.
.	.	4.gg#/	8gg#\	.
4B	.	.	8a\	.
*Xped	*	*	*	*
.	.	.	8b\J	.
*	*	*v	*v	*
=866	=866	=866	=866
*ped	*	*	*
4E	4ee	8eeL	.
.	.	8g#	.
4e	8ryy	8b	.
.	8gg#	8gg#	.
4B	4ryy	8g#	.
*Xped	*	*	*
.	.	8bJ	.
*	*v	*v	*
=867	=867	=867
*	*^	*
*	*	*^	*
*ped	*	*	*	*
4GG#	8gg#	4.dd#/	8dd#\L	.
.	8ryy	.	8f#\	.
4B#	2ryy	.	8g#\	.
.	.	4.ee/	8ee\	.
4G#	.	.	8f#\	.
*Xped	*	*	*	*
.	.	.	8g#\J	.
*	*	*v	*v	*
=868	=868	=868	=868
*ped	*	*	*
4C#/	4.cc#	8cc#L	.
.	.	8e	.
4c#	.	8g#	.
.	4.ee	8ee	.
4G#	.	8e	.
*Xped	*	*	*
.	.	8g#J	.
=869	=869	=869	=869
*	*	*^	*
*ped	*	*	*	*
4EE/	8ee	4.b/	8b\L	.
.	8ryy	.	8dn\	.
4G#	2ryy	.	8e\	.
.	.	4cc#/	8cc#\	.
[>4E	.	.	8d\	.
*Xped	*	*	*	*
.	.	8ryy	8e\J	.
*	*	*v	*v	*
!!LO:LB:g=original
=870	=870	=870	=870
*^	*	*	*
4E]	2AA	4.a	8aL	.
.	.	.	8c#	.
2E	.	.	8e	.
.	.	4.g#	8g#	.
.	(>4BB	.	8B	.
.	.	.	8eJ	.
*	*	*v	*v	*
=871	=871	=871	=871
*ped	*	*	*
!	!LO:S:s=1:note:problem:note-level slur	!	!
4E\)	4C#)	8f#L	.
.	.	8A	.
4r	4r	8e	.
.	.	8f#	.
4r	4r	8a	.
.	.	8eeJ	.
*v	*v	*	*
=872	=872	=872
2.rF	8aaL</	.
.	8ff#	.
.	8ee	.
.	8a	.
.	8f#	.
*Xped	*	*
.	8eJ)	.
=873	=873	=873
*	*^	*
!	!	!LO:N:vis=2.	!
2.AA 2.AAA	(>2.cc#	8cc#L	.
.	.	8e#X	.
.	.	8g#	.
.	.	8f#	.
.	.	8en	.
.	.	8c#J	.
=874	=874	=874	=874
2E 2EE	4.a	8aL	.
.	.	8c#	.
.	.	8e	.
.	4.g#	8g#	<
4BB 4BBB	.	8B	.
.	.	8eJ	.
*	*v	*v	*
=875	=875	=875
*ped	*	*
4C# 4CC#	8f#L	.
.	8A	.
4r	8e	.
.	8f#	.
4r	8a	.
.	8eeJ	[[
!!LO:PB:g=original
=876	=876	=876
2.FF# 2.FFF#	8ccc#L</	>
.	8ff#	.
.	8ee	.
.	8a	.
.	8f#	.
*Xped	*	*
.	8eJ)	]
=877	=877	=877
*	*^	*
!	!	!LO:N:vis=2.	!
2CC# 2CCC#	2.ee	(>8eeL	f
.	.	8g#	.
.	.	8b	.
.	.	8a	.
4AA 4AAA	.	8f#	.
.	.	8eJ	.
=878	=878	=878	=878
!	!	!LO:N:vis=2	!
2E 2EE	2dd#	8dd#L	.
.	.	8g#	.
.	.	8b	.
.	.	8a	.
4F# 4FF#	4cc#	8f#	.
.	.	8eJ	.
=879	=879	=879	=879
!	!	!LO:N:vis=2	!
2A 2AA	2b	8bL	.
.	.	8e#X	.
.	.	8g#	.
.	.	8f#	.
4c# 4C#	4a	8en	[
.	.	8AJ	.
=880	=880	=880	=880
!	!	!LO:N:vis=2	!
2B 2BB	2g#	8g#L	.
.	.	8d#	.
.	.	8f#	.
.	.	8e	.
!LO:TX:t=P:problem:brak lasek przy nutach	!	!	!
4E\ 4AA\	4f#	8c#	.
.	.	8F#J	.
=881	=881	=881	=881
*ped	*	*	*
!	!	!LO:N:vis=2	!
!LO:TX:t=P:problem:brak lasek przy nutach	!	!	!
2.E\ 2.AA\	2.f#	8f#L	.
.	.	8c#	.
.	.	8e	.
.	.	8F#	.
.	.	8c#	.
*Xped	*	*	*
.	.	8eJ	.
!!LO:LB:g=original
=882	=882	=882	=882
*ped	*	*	*
!	!	!LO:N:vis=2	!
(>2.BB 2.BBB	2.g#	8g#L	.
.	.	8dn	.
.	.	8e	.
.	.	8G#	.
.	.	8d	.
*Xped	*	*	*
.	.	8eJ	.
=883	=883	=883	=883
*ped	*	*	*
!	!	!LO:N:vis=2	!
2.C# 2.CC#	2.b	8bL	.
.	.	8c#	.
.	.	8e	.
.	.	8A	.
.	.	8c#	.
*Xped	*	*	*
.	.	8eJ	.
=884	=884	=884	=884
*ped	*	*	*
!	!	!LO:N:vis=2	!
2.D# 2.DD#	2.a	8aL	.
.	.	8c#	.
.	.	8f#	.
.	.	8A	.
.	.	8c#	.
*Xped	*	*	*
.	.	8f#J	.
=885	=885	=885	=885
*ped	*	*	*
!	!	!LO:N:vis=2	!
2.GG# 2.GGG#	2.g#	8g#L	.
.	.	8B#X	.
.	.	8f#	.
.	.	8G#	.
.	.	8B#	.
*Xped	*	*	*
.	.	8f#J	.
=886	=886	=886	=886
*ped	*	*	*
!	!	!LO:N:vis=2	!
2.C# 2.CC#	2.g#	8g#L	.
.	.	8Bn	.
.	.	8e#X	.
.	.	8G#	.
.	.	8B	.
*Xped	*	*	*
.	.	8e#J	.
=887	=887	=887	=887
*ped	*	*	*
!	!	!LO:N:vis=2	!
2.FF# 2.FFF#	2f#	8f#L	.
.	.	8A#X	.
.	.	8e	.
.	.	8F#	.
.	4ryy	8A#	.
*Xped	*	*	*
.	.	8eJ	.
!!LO:LB:g=original
=888	=888	=888	=888
*ped	*	*	*
2.BB 2.BBB)	4g#	8g#L	.
.	.	8B	.
.	4.ryy	8d#	.
.	.	8An	.
.	.	8f#	.
*Xped	*	*	*
.	8ryy	8aJ	.
*	*v	*v	*
=889	=889	=889
*ped	*	*
!	!LO:S:s=1:note:problem:note-level slur	!
4G# 4BB	4b'>) 4e'>	fz
!	!	!LO:DY:rj
(>8c#L	4r	p
8B	.	.
8c#	4r	.
8BJ	.	.
=890	=890	=890
8c#L	2.rdd	.
8B	.	.
8c#	.	.
8B	.	.
8c#	.	.
8BJ	.	.
=891	=891	=891
8c#L	(>2.g# 2.e	>
8B	.	.
8c#	.	.
8B	.	.
8c#	.	.
*Xped	*	*
8BJ	.	.
=892	=892	=892
*	*^	*
8c#L	2g#	2.d# 2.A	.
8B	.	.	.
8c#	.	.	.
8B	.	.	.
8c#	4f#	.	.
8BJ	.	.	.
*	*v	*v	*
=893	=893	=893
*ped	*	*
!	!LO:S:s=1:note:problem:note-level slur	!
8c#L	4b 4e 4G#)	]
8BJ)	.	.
4rD	(>8cc#L 8a	.
.	8b 8g#	.
4rD	8cc# 8a	.
.	8bJ 8g#	.
=894	=894	=894
4BB'< 4BBB'<	8cc#L 8a	.
.	8b 8g#	.
4rD	8cc# 8a	.
.	8b 8g#	.
*Xped	*	*
4rD	8cc# 8a	.
.	8bJ 8g#)	.
!!LO:LB:g=original
=895	=895	=895
*ped	*	*
(>8c#L	(2.ee 2.g#	<
8B	.	.
8c#	.	.
8B	.	.
8c#	.	.
8BJ	.	.
=896	=896	=896
*Xped	*	*
*	*^	*
8c#L	2ff#	2.dd# 2.a	.
8B	.	.	.
8c#	.	.	.
8B	.	.	.
8c#	4ff##X	.	.
8BJ	.	.	[[
*	*v	*v	*
=897	=897	=897
*^	*	*
*ped	*	*	*
8c#L	4E	4gg#: 4ee: 4g#:)	.
8BJ)	.	.	.
4ryy	4r	(<8cc#L 8a	.
.	.	8b 8g#	.
4ryy	4r	8cc# 8a	.
.	.	8bJ 8g#	.
*v	*v	*	*
=898	=898	=898
4BB'< 4BBB	8cc#L 8a	.
.	8b 8g#	.
4rD	8cc# 8a	.
.	8b 8g#	.
4rD	8cc# 8a	.
*Xped	*	*
.	8bJ 8g#)	.
=899	=899	=899
*ped	*	*
!	!	!LO:HP:a
(>8c#L	2.g# 2.e	>
8B	.	.
8c#	.	.
8B	.	.
8c#	.	.
8BJ	.	.
*Xped	*	*
=900	=900	=900
8c#L	2gn 2e 2A#X	.
8B	.	.
8c#	.	.
8B	.	.
8c#	4f# 4d# 4An	.
8BJ	.	]
=901	=901	=901
*ped	*	*
8c#L	4b: 4e: 4G#:	.
8BJ)	.	.
4rD	(>8cc#L 8a	.
.	8b 8g#	.
4rD	8cc# 8a	.
.	8bJ 8g#	.
!!LO:LB:g=original
=902	=902	=902
!	!LO:TX:t=P:od tego taktu luk w dol:problem	!
4BB'< 4BBB'<	8cc#L 8a	.
.	8b 8g#	.
4rD	8cc# 8a	.
.	8b 8g#	.
4rD	8cc# 8a	.
*Xped	*	*
.	8bJ 8g#)	.
=903	=903	=903
*ped	*	*
(>8c#L	(>2.bb: 2.ee: 2.g#:	<
8B	.	.
8c#	.	.
8B	.	.
8c#	.	.
8BJ	.	.
=904	=904	=904
*	*^	*
8c#L	2ff#\	2.bb/ 2.dd#/ 2.a/	.
*Xped	*	*	*
8B	.	.	.
8c#	.	.	.
8B	.	.	.
8c#	4ff##X\	.	.
8BJ	.	.	[[
*	*v	*v	*
=905	=905	=905
*^	*	*
*ped	*	*	*
8c#L	4E	4bb 4gg# 4ee 4g#)	.
8BJ)	.	.	.
!	!	!	!LO:HP:i:t=decresc.
4reyy	4r	(<8cc#L 8a	>
.	.	8b 8g#	.
4rfyy	4r	8cc# 8a	.
.	.	8bJ 8g#	.
*v	*v	*	*
=906	=906	=906
4BB'< 4BBB'<	8cc#L 8a	.
.	8b 8g#	.
4rD	8cc# 8a	.
.	8b 8g#	.
4rD	8cc# 8a	.
*Xped	*	*
.	8bJ 8g#)	.
=907	=907	=907
*ped	*	*
8c#L	(>2.bb: 2.ee: 2.g#:	<
8B	.	.
8c#	.	.
8B	.	.
8c#	.	.
8BJ	.	.
*Xped	*	*
=908	=908	=908
*	*^	*
8c#L	[4bb	2ff# 2dd#\ 2a	.
8B	.	.	.
8c#	4.bb]	.	.
8B	.	.	.
8c#	.	4ff##X	.
8BJ	8bb	.	[[
*	*v	*v	*
!!LO:LB:g=original
=909	=909	=909
*	*^	*
*ped	*	*	*
4e 4E	8ccc#L	4gg# 4ee 4g#	.
.	8bbJ)	.	.
4rD	(<8cc#L 8a	2ryy	.
.	8b 8g#	.	.
4rD	8cc# 8a	.	.
.	8bJ 8g#	.	.
*	*v	*v	*
=910	=910	=910
4BB'< 4BBB'<	8cc#L 8a	.
.	8b 8g#	.
4rD	8cc# 8a	.
.	8b 8g#	.
4rD	8cc# 8a	.
*Xped	*	*
.	8bJ 8g#)	.
=911	=911	=911
*	*^	*
*ped	*	*	*
8c#L	(>\2.bb 2.g#\	2ee	.
8B	.	.	.
8c#	.	.	.
8B	.	.	.
8c#	.	4ee#X	.
8BJ	.	.	.
=912	=912	=912	=912
8c#L	[>4bb	2ff# 2dd#\ 2a	.
8B	.	.	.
8c#	4.bb]	.	.
8B	.	.	.
8c#	.	4ff##X	.
*Xped	*	*	*
[>8BJ	8bb	.	.
*	*v	*v	*
=913	=913	=913
*ped	*	*
4gg#>^< 4ee>^< 4g#>^ 4B]	4ccc#	.
4r	4bb/)	.
4g#>	4ee/ 4b	p
=914	=914	=914
4b>	(>4gg# 4ee	.
4ee>	4bb 4gg#	.
4gg#>\	4eee/ 4bb	.
=915	=915	=915
*	*8va	*
2.b>\	2.eee/ 2.ggg#/	.
*Xped	*	*
.	.	.
=916	=916	=916
2.ee> 2.a#X>	2.cccc# 2.gggn	.
!!LO:PB:g=original
=917	=917	=917
!	!	!LO:HP:i:t=dim.
4b> 4dd#>	4bbb 4fff#	>
4b>\ 4e#X>\	4ggg#/ 4dddn/	.
!LO:TX:a:i:t= e rallent:dur=27q:ext=ud:ext2=s:problem:text with extension lines	!	!
4a> 4f#>	4aaa 4ccc#	.
=918	=918	=918
4a> 4d#X>	4fff# 4ccc#	.
4G#> 4g#>	4ggg# 4bb#X	.
4g#> 4c#>	4eee 4ccc#	.
=919	=919	=919
4gn> 4e>	4ccc# 4aa#X	.
4f#> 4B>	4ddd# 4bb	.
4e> 4c#>	4eee 4gg#X	.
=920	=920	=920
4e> 4A#X>	4ccc# 4ggn	.
4d#> 4B>	4bb 4ff#	.
*X8va	*X8va	*
!	!LO:TX:a:i:t=loco.	!
4b> 4e#X>	4gg#X 4ddn	.
=921	=921	=921
4a> 4f#>	4aa 4cc#	.
4a> 4d#X>	4ff# 4cc#	.
4g#> 4G#>	4gg# 4b#X	.
=922	=922	=922
4g#> 4c#>	4ee 4cc#	.
4f##X> 4d#>	4dd# 4a#X	.
4d# 4G#	4b 4g#	.
=923	=923	=923
4c##X 4A#X	4a#X 4e#X	.
4A# 4D#	4f# 4d#	.
4c#X 4C#	4g# 4e#	.
=924	=924	=924
4c# 4F#	4an 4f#	.
[>4A	4en 4c#	pp
4A] [>4E\ 4AA	4f# 4c#	.
=925	=925	=925
*ped	*	*
4E] 4EE	4g#>/ 4e 4B)	.
4rD	4r	.
*Xped	*	*
4rD	4r	.
!!LO:LB:g=original
=926	=926	=926
2.rF	(>8c#^<L	.
.	8e	.
.	8cc# 8g#	.
.	8e	.
.	8c#	.
.	8eJ	.
=927	=927	=927
*ped	*	*
!	!LO:TX:B:t=a tempo.	!
(<4EEE/	8G#<^<L	.
.	8B<	.
4BBB/	8g# 8e	.
.	8B<	.
4EE/	8G#<	.
.	8B<J	.
=928	=928	=928
!	!LO:TX:i:t=cresc. _:problem:dynamic with extension lines	!
!	!	!LO:HP:i:t=cresc.
4BB/	8c#L	<
.	8e	.
4G#\	8cc# 8g#	.
.	8e	.
*Xped	*	*
4EE/)	8c#	.
.	8eJ	.
=929	=929	=929
*ped	*	*
(>4EEE/	8BL	.
.	8e	.
4BBB/	8b 8g#	.
!	!LO:TX:a:i:t=piu presto.	!
.	8e	.
*Xped	*	*
4EE/	8B	.
.	8eJ	.
=930	=930	=930
*ped	*	*
4BB/	8d#L	.
.	8g#	.
4G#\	8dd# 8b	.
.	8g#	.
*Xped	*	*
4EE/)	8d#	.
.	8g#J	.
=931	=931	=931
*ped	*	*
(<4EEE	8f#L<	.
.	8g#	.
4BBB	8ff# 8b	.
.	8g#	.
4EE	8f#	.
.	8g#J	.
=932	=932	=932
4BB/	8eL	.
.	8g#	.
4G#	8ee 8b	.
.	8g#	.
4BB/)	8e	.
*Xped	*	*
.	8g#J	[
!!LO:LB:g=original
=933	=933	=933
*ped	*	*
(>16%3EE	8aL	.
.	8b	.
16%3BB	.	.
.	8aa 8ee	.
16%3A\	8b	.
.	8a	.
*Xped	*	*
16%3BB)	.	.
.	8bJ	.
=934	=934	=934
*ped	*	*
(>16%3EE	8g#L	.
.	8b	.
16%3BB	.	.
.	8gg# 8ee	.
16%3G#\	8b	.
.	8g#	.
*Xped	*	*
16%3BB)	.	.
.	8bJ	[
=935	=935	=935
*ped	*	*
(>16%3EE	8cc#L	.
.	8ee	.
16%3BB	.	.
.	8ccc# 8gg#	.
16%3G#\	8ee	.
.	8cc#	.
*Xped	*	*
16%3BB)	.	.
.	8eeJ	.
=936	=936	=936
*ped	*	*
(>16%3EE	8bL	.
.	8ee	.
16%3BB	.	.
.	8bb 8gg#	.
16%3G#\	8ee	.
.	8b	.
*Xped	*	*
16%3BB)	.	.
.	8eeJ	.
=937	=937	=937
*ped	*	*
(>16%3EE	8a#XL	.
.	8ee	.
16%3BB	.	.
.	8aa#X 8gg#	.
16%3G#\	8ee	.
.	8a#	.
*Xped	*	*
16%3BB)	.	.
.	8eeJ	.
=938	=938	=938
*ped	*	*
(>16%3EE	8bL	.
.	8ee	.
16%3BB	.	.
.	8bb 8gg#	.
16%3G#\	8ee	.
.	8b	.
*Xped	*	*
16%3BB)	.	.
.	8eeJ	.
=939	=939	=939
*ped	*	*
(>16%3EE	(>8cc#L)	.
.	8ee	.
16%3BB	.	.
.	8gg#	.
16%3G#\	8ccc#J)	.
*Xped	*	*
*	*8va	*
.	4cccc# 4ggg#	.
*	*X8va	*
16%3BB)	.	.
!!LO:LB:g=original
=940	=940	=940
!	!LO:TX:a:i:t=loco.	!
*ped	*	*
(>16%3EE	8g#L	.
.	8b	.
16%3BB	.	.
.	8ee	.
16%3G#\	8gg#J	.
.	4ggg# 4eee	.
*Xped	*	*
16%3BB)	.	.
=941	=941	=941
4BBB'<\	4B</ 4A</	.
4rD	4r	.
4rD	4r	.
=942	=942	=942
!	!	!LO:DY:rj
2.f# 2.B 2.F#	(2.aa^< 2.dd#^< 2.b^< 2.a^<	ff
*ped	*	*
=943	=943	=943
4EE 4EEE	4.gg# 4.ee 4.b 4.g#)	.
4rD	.	.
.	(8ff# 8f#	.
!LO:TX:t=P:problem:nie wyświetla się łuk	!	!
N(>4B 4G# 4BB	4ee/ 4b/ 4e/	.
*Xped	*	*
.	.	.
=944	=944	=944
!	!	!LO:HP:b=2
4.cn 4.E 4.Cn	2.gg# 2.ee 2.g#)	>
8B 8BB	.	.
4A#X 4AA#X	.	]
=945	=945	=945
*ped	*	*
2.BB\ 2.BBB	2.B<^>/ 2.An<^>/N)	.
=946	=946	=946
*Xped	*	*
4f# 4B 4F#	(>2.aa 2.dd# 2.b 2.a	>
4g# 4G#	.	]
4B 4BB	.	.
=947	=947	=947
*ped	*	*
4EE 4EEE	4.gg# 4.ee 4.b 4.g#)	.
4r	.	.
.	(8ff# 8f#	<
4B 4G# 4BB	4ee\ 4b 4e	.
*Xped	*	*
.	.	.
=948	=948	=948
4.cn 4.E 4.Cn	2.gg# 2.ee 2.g#)	[
8B 8BB	.	.
4A#X 4AA#X	.	.
!!LO:LB:g=original
=949	=949	=949
4.cn 4.E 4.Cn	2.gg#^< 2.ee^< 2.g#^<	.
8B 8BB	.	.
4A#X 4AA#X	.	.
=950	=950	=950
4cn 4E 4Cn	4cccn 4ccn	>
4B 4BB	4bb 4b	.
4A#X 4AA#X	4aa#X 4a#X	]
=951	=951	=951
4c#X 4C#X	4ccc#X 4ee 4cc#X	>
4B 4BB	4bb 4b	.
4A#X 4AA#X	4aa#X 4a#X	]
*clefG2	*	*
=952	=952	=952
*	*8va	*
4cc# 4c#	4cccc# 4ccc#	>
4b 4B	4bbb 4bb	.
4a#X 4A#X	4aaa#X 4aa#X	]
=953	=953	=953
4cc# 4c#	4cccc# 4ccc#	.
4b 4B	4bbb 4bb	.
4f##X 4F##X	4fff##X 4ff##X	.
=954	=954	=954
4a 4A	4aaa 4aa	.
4g# 4G#	4ggg# 4gg#	.
*clefF4	*	*
4d# 4D#	4ddd#/ 4dd#/	.
*	*X8va	*
=955	=955	=955
!	!LO:TX:a:i:t=loco.	!
4f# 4F#	4fff# 4ff#	.
4e 4E	4eee 4ee	.
4G#/ 4GG#/	4gg# 4g#	.
=956	=956	=956
4c# 4C#	4ccc# 4cc#	.
4B 4BB	4bb 4b	.
4F##X/ 4FF##X/	4ff##X 4f##X	.
!!LO:LB:g=original
=957	=957	=957
4A 4AA	4aa 4a	.
4G#\ 4GG#	4gg# 4g#	.
4D#/ 4DD#/	4dd#/ 4d#/	.
=958	=958	=958
4F# 4FF#	4ff# 4f#	.
*ped	*	*
4E 4EE	4ee/ 4e/	.
4GG# 4GGG#	4g# 4G#	.
=959	=959	=959
4C# 4CC#	4cc# 4c#	.
*Xped	*	*
4r	4rdd	.
4r	4rdd	.
=960	=960	=960
*ped	*	*
2.BB\ 2.BBB\	2.d#^> 2.B<^> 2.A<^> 2.D#<^>	.
*Xped	*	*
.	.	.
=961	=961	=961
*ped	*	*
4EE\ 4EEE\	4e'> 4G#< 4E<	.
*Xped	*	*
*Xtuplet	*Xtuplet	*
*cue	*cue	*
!	!	!
12FFF#L<	(>12FF#<L	<
12GGG#	12GG#<	.
12AAA	12AA<	.
12BBB	12BB<	.
12CC#	12C#<	.
!LO:TX:t=P:cross-measure beam:problem	!LO:TX:t=P:cross-measure beam:problem	!
12DD#J	12D#<J	.
=962	=962	=962
12EEL<	12E<L	.
12FF#	12F#<	.
12GG#	12G#<	.
12AA	12A<	.
12BB	12B<	.
12C#	12c#<	.
12D#	12d#	.
12E	12e	.
!LO:TX:t=P:cross-measure beam:problem	!LO:TX:t=P:cross-measure beam:problem	!
12F#J	12f#J	.
=963	=963	=963
12G#L	12g#L	.
12A	12a	.
12B	12b	.
12c#	12cc#	.
12d#>	12dd#	.
12e>	12ee	.
12f#>	12ff#	.
12g#>	12gg#	.
!LO:TX:t=P:cross-measure beam:problem	!LO:TX:t=P:cross-measure beam:problem	!
12a>J	12aaJ	.
=964	=964	=964
*ped	*	*
40%3B>L	40%3bL	.
40%3c#>	40%3cc#	.
*	*8va	*
40%3d#>	40%3ddd#	.
40%3e>	40%3eee	.
40%3f#>	40%3fff#	.
40%3g#>	40%3ggg#	.
40%3a>	40%3aaa	.
40%3b>	40%3bbb	.
40%3cc#>	40%3cccc#	.
40%3dd#>J	40%3dddd#J)	[[
*Xcue	*Xcue	*
=965	=965	=965
4ee>	4eeee/	>
*	*X8va	*
4rD	4ree	.
!	!LO:TX:a:i:t=loco.	!
4rD	4ree	.
=966	=966	=966
2.e 2.B 2.E	2.gg# 2.ee 2.b 2.g#	]]
=967	=967	=967
!LO:TX:i:B:a:t=Fine.	!	!
2.EE;<\ 2.EEE	2.E</;	.
!!LO:PB:g=original
==	==	==
*-	*-	*-
!!title: @{OTL}; @{OPS} @{ONM} publisher: @{PPR}
!!!RDF**kern: > = above
!!!RDF**kern: < = below
!!!RDF**dynam: < = "cresc.",fontstyle="italic"
!!!RDF**dynam: > = "decresc",fontstyle="italic"
!!!RDF**kern: N = linked
!!!RDF**kern: > = above
!!!ENC: Emilia Ziętek
!!!END:2019-01-29
!!!EED: Jędrzej Mróz
!!!EST: revision finished 2019-02-01
!!!EED2: Antoni Szymański
!!!EST2: revision finished 2020-01-19
!!!rism-genre: Scherzo
!!!rism-key: E major
!!!rism-opus: op.  54
!!!rism-title: Scherzo in E major op.  54
!!!rism-permalink: https://opac.rism.info/search?id=1001041129&View=rism
!!!RDF**kern: i = marked note, color="hotpink", text="extra("
!!!RDF**kern: j = marked note, color="magenta", text="extra)"
